;FLAVOR:Marlin
;TIME:5622
;Filament used: 2.89992m
;Layer height: 0.2
;MINX:56.211
;MINY:69.905
;MINZ:0.2
;MAXX:163.789
;MAXY:150.098
;MAXZ:9
;Generated with Cura_SteamEngine 5.2.1
M82 ;absolute extrusion mode
; Ender 3 Custom Start G-code
G92 E0 ; Reset Extruder
G28 ; Home all axes
M104 S175 ; Start heating up the nozzle most of the way
M190 S65 ; Start heating the bed, wait until target temperature reached
M109 S215 ; Finish heating the nozzle
G1 Z2.0 F3000 ; Move Z Axis up little to prevent scratching of Heat Bed
G1 X0.1 Y20 Z0.3 F5000.0 ; Move to start position
G1 X0.1 Y200.0 Z0.3 F1500.0 E15 ; Draw the first line
G1 X0.4 Y200.0 Z0.3 F5000.0 ; Move to side a little
G1 X0.4 Y20 Z0.3 F1500.0 E30 ; Draw the second line
G92 E0 ; Reset Extruder
G1 Z2.0 F3000 ; Move Z Axis up little to prevent scratching of Heat Bed
G1 X5 Y20 Z0.3 F5000.0 ; Move over to prevent blob squish
G92 E0
G92 E0
G1 F2400 E-1.5
;LAYER_COUNT:45
;LAYER:0
M107
M204 S500
M205 X8 Y8
G0 F6000 X60.964 Y72.907 Z0.2
M204 S150
M205 X1 Y1
;TYPE:SKIRT
G1 F2400 E0
G1 F480 X61.325 Y72.619 E0.01382
G1 X61.936 Y72.176 E0.03642
G1 X62.322 Y71.923 E0.05023
G1 X62.966 Y71.543 E0.07261
G1 X63.375 Y71.326 E0.08647
G1 X64.042 Y71.01 E0.10857
G1 X64.467 Y70.832 E0.12236
G1 X65.193 Y70.568 E0.14548
G1 X65.634 Y70.431 E0.15931
G1 X66.345 Y70.245 E0.18131
G1 X66.799 Y70.148 E0.1952
G1 X67.527 Y70.027 E0.21729
G1 X67.986 Y69.972 E0.23113
G1 X68.739 Y69.917 E0.25373
G1 X69.199 Y69.905 E0.26751
G1 X69.971 Y69.921 E0.29062
G1 X70.446 Y69.954 E0.30487
G1 X71.167 Y70.037 E0.3266
G1 X71.61 Y70.108 E0.34003
G1 X72.355 Y70.264 E0.36281
G1 X72.8 Y70.379 E0.37657
G1 X73.511 Y70.598 E0.39884
G1 X73.962 Y70.76 E0.41319
G1 X74.648 Y71.042 E0.43539
G1 X75.051 Y71.23 E0.4487
G1 X75.719 Y71.581 E0.47129
G1 X76.117 Y71.814 E0.48509
G1 X76.738 Y72.216 E0.50724
G1 X77.114 Y72.485 E0.52108
G1 X77.693 Y72.94 E0.54312
G1 X78.043 Y73.242 E0.55696
G1 X78.6 Y73.772 E0.57997
G1 X78.919 Y74.105 E0.59378
G1 X79.409 Y74.665 E0.61605
G1 X79.697 Y75.027 E0.6299
G1 X80.133 Y75.63 E0.65217
G1 X80.386 Y76.016 E0.66599
G1 X80.766 Y76.66 E0.68837
G1 X80.983 Y77.069 E0.70223
G1 X81.302 Y77.742 E0.72453
G1 X81.48 Y78.168 E0.73835
G1 X81.617 Y78.521 E0.74968
G1 X89.168 Y99.267 E1.41055
G1 X89.339 Y99.7 E1.42449
G1 X89.483 Y100.016 E1.43488
G1 X89.668 Y100.367 E1.44676
G1 X89.86 Y100.69 E1.45801
G1 X90.051 Y100.977 E1.46833
G1 X90.262 Y101.259 E1.47887
G1 X90.505 Y101.55 E1.49022
G1 X90.753 Y101.82 E1.50119
G1 X91.011 Y102.069 E1.51192
G1 X91.3 Y102.321 E1.5234
G1 X91.569 Y102.532 E1.53364
G1 X91.881 Y102.749 E1.54501
G1 X92.204 Y102.951 E1.55642
G1 X92.506 Y103.118 E1.56675
G1 X92.835 Y103.277 E1.57768
G1 X93.213 Y103.436 E1.58996
G1 X93.52 Y103.546 E1.59972
G1 X93.878 Y103.654 E1.61091
G1 X94.244 Y103.743 E1.62219
G1 X94.592 Y103.808 E1.63279
G1 X94.935 Y103.854 E1.64315
G1 X95.329 Y103.885 E1.65498
G1 X95.801 Y103.898 E1.66911
G1 X124.214 Y103.898 E2.51963
G1 X124.672 Y103.885 E2.53334
G1 X125.066 Y103.853 E2.54518
G1 X125.421 Y103.806 E2.5559
G1 X125.747 Y103.745 E2.56582
G1 X126.133 Y103.65 E2.57772
G1 X126.483 Y103.545 E2.58866
G1 X126.804 Y103.43 E2.59887
G1 X127.187 Y103.268 E2.61132
G1 X127.484 Y103.124 E2.6212
G1 X127.809 Y102.944 E2.63232
G1 X128.118 Y102.752 E2.64321
G1 X128.423 Y102.538 E2.65436
G1 X128.7 Y102.321 E2.66489
G1 X128.987 Y102.072 E2.67627
G1 X129.251 Y101.814 E2.68732
G1 X129.493 Y101.553 E2.69797
G1 X129.738 Y101.259 E2.70943
G1 X129.941 Y100.987 E2.71959
G1 X130.155 Y100.666 E2.73114
G1 X130.345 Y100.346 E2.74228
G1 X130.511 Y100.028 E2.75301
G1 X130.654 Y99.714 E2.76334
G1 X130.841 Y99.242 E2.77854
G1 X138.389 Y78.506 E3.4391
G1 X138.7 Y77.739 E3.46387
G1 X139.021 Y77.061 E3.48633
G1 X139.245 Y76.64 E3.5006
G1 X139.635 Y75.984 E3.52345
G1 X139.889 Y75.599 E3.53725
G1 X140.32 Y75.006 E3.5592
G1 X140.609 Y74.644 E3.57306
G1 X141.107 Y74.077 E3.59565
G1 X141.427 Y73.745 E3.60946
G1 X141.973 Y73.229 E3.63195
G1 X142.312 Y72.937 E3.64534
G1 X142.882 Y72.489 E3.66704
G1 X143.259 Y72.219 E3.68092
G1 X143.88 Y71.815 E3.7031
G1 X144.276 Y71.583 E3.71684
G1 X144.953 Y71.228 E3.73972
G1 X145.372 Y71.033 E3.75355
G1 X146.067 Y70.748 E3.77604
G1 X146.504 Y70.592 E3.78993
G1 X147.2 Y70.379 E3.81172
G1 X147.645 Y70.264 E3.82547
G1 X148.397 Y70.107 E3.84847
G1 X148.855 Y70.034 E3.86235
G1 X149.602 Y69.95 E3.88485
G1 X150.077 Y69.919 E3.8991
G1 X150.823 Y69.905 E3.92144
G1 X151.268 Y69.917 E3.93476
G1 X152.014 Y69.972 E3.95716
G1 X152.473 Y70.027 E3.97099
G1 X153.218 Y70.151 E3.9936
G1 X153.686 Y70.252 E4.00793
G1 X154.386 Y70.436 E4.0296
G1 X154.813 Y70.569 E4.04299
G1 X155.533 Y70.832 E4.06593
G1 X155.958 Y71.01 E4.07972
G1 X156.641 Y71.334 E4.10235
G1 X157.061 Y71.558 E4.1166
G1 X157.71 Y71.944 E4.13921
G1 X158.095 Y72.198 E4.15301
G1 X158.696 Y72.636 E4.17527
G1 X159.057 Y72.925 E4.18912
G1 X159.607 Y73.408 E4.21103
G1 X159.94 Y73.728 E4.22485
G1 X160.465 Y74.282 E4.2477
G1 X160.757 Y74.621 E4.26109
G1 X161.196 Y75.177 E4.2823
G1 X161.465 Y75.551 E4.29609
G1 X161.884 Y76.196 E4.31911
G1 X162.117 Y76.595 E4.33294
G1 X162.466 Y77.262 E4.35548
G1 X162.661 Y77.681 E4.36931
G1 X162.951 Y78.391 E4.39227
G1 X163.106 Y78.828 E4.40615
G1 X163.314 Y79.509 E4.42746
G1 X163.429 Y79.954 E4.44122
G1 X163.582 Y80.684 E4.46355
G1 X163.656 Y81.14 E4.47738
G1 X163.745 Y81.929 E4.50114
G1 X163.775 Y82.406 E4.51545
G1 X163.789 Y83.114 E4.53665
G1 X163.778 Y83.559 E4.54997
G1 X163.722 Y84.323 E4.5729
G1 X163.667 Y84.782 E4.58674
G1 X163.543 Y85.527 E4.60935
G1 X163.442 Y85.995 E4.62368
G1 X163.254 Y86.705 E4.64567
G1 X163.003 Y87.481 E4.67008
G1 X145.745 Y134.898 E6.18056
G1 X145.369 Y135.854 E6.21131
G1 X145.209 Y136.229 E6.22351
G1 X144.879 Y136.953 E6.24733
G1 X144.684 Y137.354 E6.26068
G1 X144.302 Y138.083 E6.28531
G1 X144.088 Y138.465 E6.29842
G1 X143.681 Y139.149 E6.32225
G1 X143.456 Y139.505 E6.33485
G1 X143.028 Y140.146 E6.35792
G1 X142.781 Y140.497 E6.37077
G1 X142.305 Y141.134 E6.39458
G1 X142.039 Y141.47 E6.4074
G1 X141.529 Y142.082 E6.43125
G1 X141.252 Y142.397 E6.44381
G1 X140.71 Y142.983 E6.4677
G1 X140.41 Y143.291 E6.48057
G1 X139.839 Y143.846 E6.50441
G1 X139.51 Y144.149 E6.5178
G1 X138.91 Y144.671 E6.5416
G1 X138.583 Y144.94 E6.55428
G1 X137.954 Y145.432 E6.57818
G1 X137.613 Y145.685 E6.59089
G1 X136.961 Y146.142 E6.61473
G1 X136.594 Y146.385 E6.6279
G1 X135.918 Y146.806 E6.65174
G1 X135.552 Y147.021 E6.66445
G1 X134.853 Y147.407 E6.68835
G1 X134.466 Y147.607 E6.70139
G1 X133.749 Y147.954 E6.72523
G1 X133.375 Y148.123 E6.73752
G1 X132.642 Y148.433 E6.76134
G1 X132.218 Y148.599 E6.77497
G1 X131.467 Y148.868 E6.79885
G1 X131.077 Y148.996 E6.81114
G1 X130.315 Y149.226 E6.83496
G1 X129.888 Y149.343 E6.84822
G1 X129.115 Y149.531 E6.87203
G1 X128.704 Y149.619 E6.88461
G1 X127.92 Y149.767 E6.9085
G1 X127.484 Y149.837 E6.92171
G1 X126.694 Y149.942 E6.94557
G1 X126.268 Y149.988 E6.9584
G1 X125.474 Y150.051 E6.98224
G1 X125.057 Y150.073 E6.99474
G1 X124.037 Y150.098 E7.02528
G1 X95.938 Y150.098 E7.8664
G1 X94.936 Y150.073 E7.8964
G1 X94.517 Y150.05 E7.90896
G1 X93.697 Y149.984 E7.93359
G1 X93.275 Y149.939 E7.94629
G1 X92.511 Y149.837 E7.96937
G1 X92.09 Y149.769 E7.98213
G1 X91.306 Y149.622 E8.00601
G1 X90.867 Y149.527 E8.01945
G1 X90.069 Y149.331 E8.04405
G1 X89.655 Y149.218 E8.0569
G1 X88.918 Y148.995 E8.07995
G1 X88.533 Y148.868 E8.09208
G1 X87.782 Y148.599 E8.11596
G1 X87.354 Y148.432 E8.12971
G1 X86.596 Y148.111 E8.15435
G1 X86.217 Y147.938 E8.16683
G1 X85.525 Y147.602 E8.18985
G1 X85.147 Y147.407 E8.20258
G1 X84.448 Y147.021 E8.22649
G1 X84.089 Y146.81 E8.23895
G1 X83.413 Y146.39 E8.26277
G1 X83.032 Y146.138 E8.27645
G1 X82.38 Y145.68 E8.3003
G1 X82.046 Y145.432 E8.31275
G1 X81.417 Y144.94 E8.33666
G1 X81.09 Y144.671 E8.34933
G1 X80.49 Y144.149 E8.37314
G1 X80.156 Y143.841 E8.38674
G1 X79.586 Y143.286 E8.41055
G1 X79.296 Y142.988 E8.423
G1 X78.753 Y142.402 E8.44691
G1 X78.471 Y142.082 E8.45968
G1 X77.961 Y141.47 E8.48353
G1 X77.695 Y141.134 E8.49636
G1 X77.219 Y140.497 E8.52016
G1 X76.968 Y140.141 E8.5332
G1 X76.526 Y139.478 E8.55705
G1 X76.298 Y139.115 E8.56988
G1 X75.892 Y138.43 E8.59372
G1 X75.681 Y138.052 E8.60668
G1 X75.312 Y137.346 E8.63052
G1 X75.117 Y136.946 E8.64384
G1 X74.777 Y136.198 E8.66844
G1 X74.619 Y135.825 E8.68057
G1 X74.255 Y134.898 E8.71038
G1 X56.997 Y87.481 E10.22085
G1 X56.74 Y86.685 E10.24589
G1 X56.551 Y85.964 E10.2682
G1 X56.454 Y85.51 E10.2821
G1 X56.333 Y84.786 E10.30407
G1 X56.278 Y84.329 E10.31785
G1 X56.222 Y83.554 E10.34111
G1 X56.211 Y83.093 E10.35491
G1 X56.227 Y82.357 E10.37695
G1 X56.259 Y81.881 E10.39123
G1 X56.346 Y81.125 E10.41401
G1 X56.418 Y80.682 E10.42745
G1 X56.571 Y79.954 E10.44971
G1 X56.686 Y79.509 E10.46347
G1 X56.9 Y78.813 E10.48527
G1 X57.061 Y78.362 E10.4996
G1 X57.348 Y77.661 E10.52228
G1 X57.536 Y77.258 E10.53559
G1 X57.882 Y76.597 E10.55792
G1 X58.115 Y76.198 E10.57175
G1 X58.528 Y75.562 E10.59445
G1 X58.797 Y75.187 E10.60827
G1 X59.246 Y74.616 E10.63001
G1 X59.548 Y74.266 E10.64385
G1 X60.086 Y73.7 E10.66723
G1 X60.42 Y73.381 E10.68105
G1 X60.964 Y72.907 E10.70265
M204 S500
M205 X8 Y8
G0 F6000 X61.188 Y73.189
M204 S150
M205 X1 Y1
G1 F480 X61.549 Y72.901 E10.71647
G1 X62.133 Y72.478 E10.73806
G1 X62.519 Y72.225 E10.75187
G1 X63.134 Y71.861 E10.77327
G1 X63.543 Y71.644 E10.78713
G1 X64.181 Y71.342 E10.80826
G1 X64.606 Y71.164 E10.82205
G1 X65.3 Y70.911 E10.84416
G1 X65.741 Y70.774 E10.85798
G1 X66.42 Y70.597 E10.87899
G1 X66.874 Y70.5 E10.89289
G1 X67.57 Y70.384 E10.91401
G1 X68.029 Y70.329 E10.92784
G1 X68.748 Y70.277 E10.94942
G1 X69.208 Y70.265 E10.9632
G1 X69.946 Y70.281 E10.98529
G1 X70.421 Y70.314 E10.99955
G1 X71.11 Y70.393 E11.02031
G1 X71.553 Y70.464 E11.03374
G1 X72.265 Y70.612 E11.05551
G1 X72.71 Y70.727 E11.06926
G1 X73.39 Y70.937 E11.09057
G1 X73.841 Y71.099 E11.10491
G1 X74.496 Y71.369 E11.12612
G1 X74.899 Y71.557 E11.13943
G1 X75.537 Y71.891 E11.16099
G1 X75.935 Y72.124 E11.17479
G1 X76.529 Y72.509 E11.19598
G1 X76.905 Y72.778 E11.20982
G1 X77.457 Y73.213 E11.23086
G1 X77.807 Y73.515 E11.2447
G1 X78.34 Y74.021 E11.2667
G1 X78.659 Y74.354 E11.2805
G1 X79.127 Y74.889 E11.30178
G1 X79.415 Y75.251 E11.31563
G1 X79.831 Y75.827 E11.33689
G1 X80.084 Y76.213 E11.35071
G1 X80.448 Y76.828 E11.3721
G1 X80.665 Y77.237 E11.38596
G1 X80.97 Y77.881 E11.40729
G1 X81.148 Y78.307 E11.42111
G1 X81.279 Y78.644 E11.43194
G1 X88.837 Y99.408 E12.09338
G1 X89.003 Y99.828 E12.1069
G1 X89.166 Y100.186 E12.11868
G1 X89.35 Y100.536 E12.13051
G1 X89.557 Y100.884 E12.14263
G1 X89.754 Y101.179 E12.15325
G1 X89.987 Y101.491 E12.16491
G1 X90.236 Y101.79 E12.17656
G1 X90.492 Y102.067 E12.18785
G1 X90.778 Y102.345 E12.19979
G1 X91.054 Y102.585 E12.21073
G1 X91.356 Y102.822 E12.22223
G1 X91.697 Y103.06 E12.23467
G1 X92.007 Y103.253 E12.2456
G1 X92.343 Y103.439 E12.2571
G1 X92.692 Y103.608 E12.26871
G1 X93.066 Y103.765 E12.28085
G1 X93.408 Y103.888 E12.29173
G1 X93.777 Y103.999 E12.30326
G1 X94.175 Y104.095 E12.31552
G1 X94.531 Y104.162 E12.32636
G1 X94.918 Y104.214 E12.33805
G1 X95.309 Y104.245 E12.34979
G1 X95.791 Y104.258 E12.36423
G1 X124.224 Y104.258 E13.21534
G1 X124.693 Y104.245 E13.22939
G1 X125.105 Y104.211 E13.24176
G1 X125.476 Y104.162 E13.25296
G1 X125.829 Y104.096 E13.26371
G1 X126.227 Y103.999 E13.27598
G1 X126.578 Y103.893 E13.28695
G1 X126.958 Y103.756 E13.29904
G1 X127.307 Y103.608 E13.31039
G1 X127.661 Y103.437 E13.32216
G1 X127.996 Y103.251 E13.33363
G1 X128.319 Y103.051 E13.345
G1 X128.627 Y102.836 E13.35625
G1 X128.946 Y102.585 E13.3684
G1 X129.22 Y102.347 E13.37926
G1 X129.503 Y102.072 E13.39107
G1 X129.77 Y101.782 E13.40287
G1 X130.013 Y101.491 E13.41422
G1 X130.248 Y101.177 E13.42596
G1 X130.46 Y100.859 E13.4374
G1 X130.647 Y100.543 E13.44839
G1 X130.836 Y100.183 E13.46056
G1 X130.991 Y99.842 E13.47178
G1 X131.177 Y99.371 E13.48693
G1 X138.727 Y78.63 E14.14765
G1 X139.032 Y77.878 E14.17194
G1 X139.339 Y77.23 E14.19341
G1 X139.563 Y76.809 E14.20768
G1 X139.935 Y76.183 E14.22948
G1 X140.189 Y75.798 E14.24329
G1 X140.601 Y75.231 E14.26427
G1 X140.89 Y74.869 E14.27813
G1 X141.366 Y74.327 E14.29973
G1 X141.686 Y73.995 E14.31353
G1 X142.208 Y73.502 E14.33502
G1 X142.547 Y73.21 E14.34842
G1 X143.091 Y72.781 E14.36915
G1 X143.468 Y72.511 E14.38304
G1 X144.062 Y72.126 E14.40422
G1 X144.458 Y71.894 E14.41796
G1 X145.105 Y71.555 E14.43983
G1 X145.524 Y71.36 E14.45366
G1 X146.188 Y71.088 E14.47514
G1 X146.625 Y70.932 E14.48903
G1 X147.29 Y70.727 E14.50986
G1 X147.735 Y70.612 E14.52362
G1 X148.454 Y70.462 E14.54561
G1 X148.912 Y70.389 E14.55949
G1 X149.626 Y70.309 E14.581
G1 X150.101 Y70.278 E14.59524
G1 X150.814 Y70.265 E14.61659
G1 X151.259 Y70.277 E14.62992
G1 X151.971 Y70.329 E14.65129
G1 X152.43 Y70.384 E14.66512
G1 X153.142 Y70.503 E14.68673
G1 X153.61 Y70.604 E14.70106
G1 X154.279 Y70.78 E14.72177
G1 X154.706 Y70.913 E14.73516
G1 X155.394 Y71.164 E14.75708
G1 X155.819 Y71.342 E14.77087
G1 X156.471 Y71.652 E14.79249
G1 X156.891 Y71.876 E14.80673
G1 X157.511 Y72.244 E14.82832
G1 X157.896 Y72.498 E14.84212
G1 X158.471 Y72.917 E14.86342
G1 X158.832 Y73.206 E14.87726
G1 X159.358 Y73.667 E14.8982
G1 X159.691 Y73.987 E14.91202
G1 X160.192 Y74.517 E14.93386
G1 X160.484 Y74.856 E14.94725
G1 X160.904 Y75.388 E14.96754
G1 X161.173 Y75.762 E14.98133
G1 X161.573 Y76.378 E15.00331
G1 X161.806 Y76.777 E15.01715
G1 X162.139 Y77.414 E15.03866
G1 X162.334 Y77.833 E15.0525
G1 X162.612 Y78.512 E15.07446
G1 X162.767 Y78.949 E15.08834
G1 X162.966 Y79.599 E15.10869
G1 X163.081 Y80.044 E15.12245
G1 X163.227 Y80.741 E15.14376
G1 X163.301 Y81.197 E15.15759
G1 X163.386 Y81.951 E15.1803
G1 X163.416 Y82.428 E15.19461
G1 X163.429 Y83.105 E15.21488
G1 X163.418 Y83.55 E15.2282
G1 X163.365 Y84.28 E15.25011
G1 X163.31 Y84.739 E15.26395
G1 X163.191 Y85.451 E15.28556
G1 X163.09 Y85.919 E15.29989
G1 X162.911 Y86.598 E15.32091
G1 X162.664 Y87.358 E15.34483
G1 X145.329 Y134.979 E16.86184
G1 X145.035 Y135.721 E16.88573
G1 X144.882 Y136.08 E16.89741
G1 X144.552 Y136.804 E16.92123
G1 X144.365 Y137.186 E16.93396
G1 X143.983 Y137.915 E16.95859
G1 X143.779 Y138.281 E16.97114
G1 X143.372 Y138.965 E16.99496
G1 X143.157 Y139.305 E17.007
G1 X142.729 Y139.946 E17.03008
G1 X142.492 Y140.281 E17.04236
G1 X142.016 Y140.918 E17.06616
G1 X141.762 Y141.24 E17.07844
G1 X141.252 Y141.852 E17.10229
G1 X140.988 Y142.153 E17.11427
G1 X140.446 Y142.739 E17.13817
G1 X140.159 Y143.033 E17.15046
G1 X139.588 Y143.588 E17.1743
G1 X139.273 Y143.877 E17.1871
G1 X138.673 Y144.399 E17.2109
G1 X138.362 Y144.657 E17.223
G1 X137.733 Y145.149 E17.2469
G1 X137.407 Y145.39 E17.25904
G1 X136.755 Y145.847 E17.28287
G1 X136.404 Y146.079 E17.29547
G1 X135.728 Y146.5 E17.31931
G1 X135.378 Y146.706 E17.33146
G1 X134.679 Y147.092 E17.35537
G1 X134.309 Y147.283 E17.36783
G1 X133.592 Y147.63 E17.39167
G1 X133.235 Y147.792 E17.40341
G1 X132.502 Y148.102 E17.42723
G1 X132.097 Y148.26 E17.44025
G1 X131.346 Y148.529 E17.46412
G1 X130.973 Y148.652 E17.47588
G1 X130.211 Y148.882 E17.49971
G1 X129.803 Y148.993 E17.51236
G1 X129.03 Y149.181 E17.53618
G1 X128.637 Y149.266 E17.54821
G1 X127.853 Y149.414 E17.5721
G1 X127.437 Y149.481 E17.58471
G1 X126.647 Y149.586 E17.60857
G1 X126.239 Y149.629 E17.62085
G1 X125.445 Y149.692 E17.64469
G1 X125.047 Y149.713 E17.65662
G1 X124.037 Y149.738 E17.68686
G1 X95.938 Y149.738 E18.52798
G1 X94.946 Y149.713 E18.55769
G1 X94.546 Y149.691 E18.56968
G1 X93.726 Y149.625 E18.5943
G1 X93.323 Y149.582 E18.60643
G1 X92.559 Y149.48 E18.62951
G1 X92.157 Y149.415 E18.6417
G1 X91.373 Y149.268 E18.66557
G1 X90.953 Y149.178 E18.67843
G1 X90.155 Y148.982 E18.70303
