;FLAVOR:Marlin
;TIME:14063
;Filament used: 11.0902m
;Layer height: 0.2
;MINX:75.729
;MINY:75.729
;MINZ:0.2
;MAXX:144.271
;MAXY:144.271
;MAXZ:67
;Generated with Cura_SteamEngine 5.2.1
M82 ;absolute extrusion mode
; Ender 3 Custom Start G-code
G92 E0 ; Reset Extruder
G28 ; Home all axes
M104 S175 ; Start heating up the nozzle most of the way
M190 S65 ; Start heating the bed, wait until target temperature reached
M109 S215 ; Finish heating the nozzle
G1 Z2.0 F3000 ; Move Z Axis up little to prevent scratching of Heat Bed
G1 X0.1 Y20 Z0.3 F5000.0 ; Move to start position
G1 X0.1 Y200.0 Z0.3 F1500.0 E15 ; Draw the first line
G1 X0.4 Y200.0 Z0.3 F5000.0 ; Move to side a little
G1 X0.4 Y20 Z0.3 F1500.0 E30 ; Draw the second line
G92 E0 ; Reset Extruder
G1 Z2.0 F3000 ; Move Z Axis up little to prevent scratching of Heat Bed
G1 X5 Y20 Z0.3 F5000.0 ; Move over to prevent blob squish
G92 E0
G92 E0
G1 F2400 E-1.5
;LAYER_COUNT:335
;LAYER:0
M107
M204 S500
M205 X8 Y8
G0 F6000 X85.396 Y86.139 Z0.2
M204 S150
M205 X1 Y1
;TYPE:SKIRT
G1 F2400 E0
G1 F480 X86.142 Y85.393 E0.03158
G1 X88.717 Y83.134 E0.13412
G1 X89.562 Y82.486 E0.16599
G1 X92.413 Y80.583 E0.2686
G1 X93.325 Y80.056 E0.30013
G1 X96.397 Y78.54 E0.40268
G1 X97.382 Y78.133 E0.43458
G1 X100.624 Y77.034 E0.53705
G1 X101.643 Y76.761 E0.56863
G1 X105.005 Y76.092 E0.67124
G1 X106.056 Y75.953 E0.70298
G1 X109.473 Y75.729 E0.80548
G1 X110.535 Y75.73 E0.83727
G1 X113.952 Y75.955 E0.93978
G1 X115.003 Y76.093 E0.97151
G1 X118.366 Y76.763 E1.07415
G1 X119.386 Y77.037 E1.10577
G1 X122.627 Y78.137 E1.20822
G1 X123.609 Y78.543 E1.24003
G1 X126.681 Y80.059 E1.34258
G1 X127.596 Y80.588 E1.37421
G1 X130.446 Y82.492 E1.47681
G1 X131.291 Y83.141 E1.50871
G1 X133.86 Y85.397 E1.61105
G1 X134.602 Y86.139 E1.64246
G1 X136.862 Y88.713 E1.745
G1 X137.51 Y89.557 E1.77685
G1 X139.413 Y92.405 E1.87938
G1 X139.941 Y93.32 E1.911
G1 X141.457 Y96.391 E2.01352
G1 X141.865 Y97.376 E2.04544
G1 X142.965 Y100.621 E2.148
G1 X143.238 Y101.638 E2.17952
G1 X143.908 Y105 E2.28214
G1 X144.047 Y106.053 E2.31393
G1 X144.271 Y109.469 E2.41641
G1 X144.271 Y110.531 E2.4482
G1 X144.046 Y113.952 E2.55082
G1 X143.907 Y115.003 E2.58256
G1 X143.237 Y118.365 E2.68518
G1 X142.964 Y119.385 E2.71678
G1 X141.864 Y122.627 E2.81926
G1 X141.457 Y123.609 E2.85108
G1 X139.941 Y126.681 E2.95363
G1 X139.412 Y127.596 E2.98527
G1 X137.508 Y130.446 E3.08787
G1 X136.861 Y131.289 E3.11968
G1 X134.604 Y133.861 E3.22211
G1 X133.858 Y134.607 E3.25369
G1 X131.283 Y136.866 E3.35623
G1 X130.438 Y137.514 E3.3881
G1 X127.587 Y139.417 E3.49071
G1 X126.675 Y139.944 E3.52224
G1 X123.603 Y141.46 E3.62478
G1 X122.618 Y141.867 E3.65669
G1 X119.376 Y142.966 E3.75916
G1 X118.357 Y143.239 E3.79074
G1 X114.995 Y143.908 E3.89335
G1 X113.944 Y144.047 E3.92508
G1 X110.527 Y144.271 E4.02759
G1 X109.465 Y144.27 E4.05938
G1 X106.048 Y144.045 E4.16188
G1 X104.997 Y143.907 E4.19362
G1 X101.634 Y143.237 E4.29626
G1 X100.614 Y142.963 E4.32788
G1 X97.373 Y141.863 E4.43033
G1 X96.391 Y141.457 E4.46214
G1 X93.319 Y139.941 E4.56468
G1 X92.404 Y139.412 E4.59632
G1 X89.554 Y137.508 E4.69892
G1 X88.709 Y136.859 E4.73081
G1 X86.138 Y134.601 E4.83324
G1 X85.396 Y133.859 E4.86465
G1 X83.138 Y131.287 E4.9671
G1 X82.49 Y130.443 E4.99896
G1 X80.586 Y127.593 E5.10155
G1 X80.055 Y126.674 E5.13333
G1 X78.542 Y123.604 E5.23578
G1 X78.138 Y122.628 E5.2674
G1 X77.036 Y119.384 E5.36995
G1 X76.762 Y118.361 E5.40166
G1 X76.092 Y114.996 E5.50436
G1 X75.953 Y113.944 E5.53613
G1 X75.729 Y110.528 E5.6386
G1 X75.729 Y109.466 E5.67039
G1 X75.954 Y106.048 E5.77293
G1 X76.093 Y104.997 E5.80466
G1 X76.763 Y101.635 E5.90728
G1 X77.036 Y100.615 E5.93889
G1 X78.136 Y97.373 E6.04137
G1 X78.543 Y96.391 E6.07319
G1 X80.059 Y93.319 E6.17573
G1 X80.588 Y92.404 E6.20737
G1 X82.492 Y89.554 E6.30997
G1 X83.139 Y88.711 E6.34178
G1 X85.396 Y86.139 E6.44421
M204 S500
M205 X8 Y8
G0 F6000 X85.666 Y86.377
M204 S150
M205 X1 Y1
G1 F480 X86.38 Y85.664 E6.47441
G1 X88.955 Y83.405 E6.57695
G1 X89.762 Y82.785 E6.60742
G1 X92.613 Y80.882 E6.71002
G1 X93.485 Y80.379 E6.74016
G1 X96.557 Y78.863 E6.8427
G1 X97.497 Y78.474 E6.87315
G1 X100.739 Y77.375 E6.97563
G1 X101.713 Y77.114 E7.00581
G1 X105.075 Y76.445 E7.10842
G1 X106.08 Y76.313 E7.13876
G1 X109.497 Y76.089 E7.24127
G1 X110.512 Y76.089 E7.27165
G1 X113.929 Y76.314 E7.37416
G1 X114.932 Y76.446 E7.40444
G1 X118.295 Y77.116 E7.50709
G1 X119.271 Y77.378 E7.53734
G1 X122.512 Y78.478 E7.63979
G1 X123.449 Y78.866 E7.67015
G1 X126.521 Y80.382 E7.77269
G1 X127.396 Y80.887 E7.80293
G1 X130.246 Y82.791 E7.90553
G1 X131.053 Y83.411 E7.936
G1 X133.622 Y85.667 E8.03834
G1 X134.331 Y86.376 E8.06835
G1 X136.591 Y88.95 E8.17089
G1 X137.211 Y89.757 E8.20135
G1 X139.114 Y92.605 E8.30389
G1 X139.618 Y93.479 E8.33409
G1 X141.134 Y96.55 E8.4366
G1 X141.524 Y97.491 E8.4671
G1 X142.624 Y100.736 E8.56966
G1 X142.885 Y101.708 E8.59979
G1 X143.555 Y105.07 E8.70241
G1 X143.687 Y106.077 E8.73281
G1 X143.911 Y109.493 E8.83528
G1 X143.911 Y110.507 E8.86563
G1 X143.686 Y113.928 E8.96826
G1 X143.554 Y114.933 E8.9986
G1 X142.884 Y118.295 E9.10122
G1 X142.623 Y119.269 E9.1314
G1 X141.523 Y122.511 E9.23388
G1 X141.134 Y123.449 E9.26428
G1 X139.618 Y126.521 E9.36683
G1 X139.113 Y127.396 E9.39707
G1 X137.209 Y130.246 E9.49967
G1 X136.591 Y131.051 E9.53005
G1 X134.334 Y133.623 E9.63248
G1 X133.62 Y134.336 E9.66268
G1 X131.045 Y136.595 E9.76522
G1 X130.238 Y137.215 E9.79568
G1 X127.387 Y139.118 E9.89829
G1 X126.515 Y139.621 E9.92842
G1 X123.443 Y141.137 E10.03097
G1 X122.503 Y141.526 E10.06142
G1 X119.261 Y142.625 E10.16389
G1 X118.287 Y142.886 E10.19408
G1 X114.925 Y143.555 E10.29669
G1 X113.92 Y143.687 E10.32703
G1 X110.503 Y143.911 E10.42954
G1 X109.488 Y143.911 E10.45992
G1 X106.071 Y143.686 E10.56243
G1 X105.068 Y143.554 E10.59271
G1 X101.705 Y142.884 E10.69536
G1 X100.729 Y142.622 E10.72561
G1 X97.488 Y141.522 E10.82806
G1 X96.551 Y141.134 E10.85842
G1 X93.479 Y139.618 E10.96096
G1 X92.604 Y139.113 E10.9912
G1 X89.754 Y137.209 E11.0938
G1 X88.946 Y136.589 E11.12429
G1 X86.375 Y134.331 E11.22672
G1 X85.666 Y133.621 E11.25675
G1 X83.408 Y131.049 E11.3592
G1 X82.789 Y130.243 E11.38962
G1 X80.885 Y127.393 E11.49222
G1 X80.378 Y126.515 E11.52257
G1 X78.865 Y123.445 E11.62502
G1 X78.479 Y122.513 E11.65522
G1 X77.377 Y119.269 E11.75778
G1 X77.115 Y118.29 E11.78811
G1 X76.445 Y114.925 E11.89082
G1 X76.313 Y113.92 E11.92116
G1 X76.089 Y110.504 E12.02364
G1 X76.089 Y109.49 E12.05399
G1 X76.314 Y106.072 E12.15652
G1 X76.446 Y105.067 E12.18687
G1 X77.116 Y101.705 E12.28948
G1 X77.377 Y100.731 E12.31967
G1 X78.477 Y97.489 E12.42215
G1 X78.866 Y96.551 E12.45255
G1 X80.382 Y93.479 E12.55509
G1 X80.887 Y92.604 E12.58533
G1 X82.791 Y89.754 E12.68793
G1 X83.409 Y88.949 E12.71831
G1 X85.666 Y86.377 E12.82074
M204 S500
M205 X8 Y8
G0 F6000 X85.937 Y86.614
M204 S150
M205 X1 Y1
G1 F480 X86.617 Y85.934 E12.84953
G1 X89.192 Y83.675 E12.95207
G1 X89.962 Y83.085 E12.9811
G1 X92.813 Y81.182 E13.08371
G1 X93.644 Y80.702 E13.11244
G1 X96.716 Y79.186 E13.21498
G1 X97.613 Y78.815 E13.24404
G1 X100.855 Y77.716 E13.34651
G1 X101.784 Y77.467 E13.3753
G1 X105.146 Y76.798 E13.47791
G1 X106.103 Y76.672 E13.50681
G1 X109.52 Y76.448 E13.60931
G1 X110.488 Y76.448 E13.63829
G1 X113.905 Y76.673 E13.74079
G1 X114.862 Y76.799 E13.76969
G1 X118.225 Y77.469 E13.87234
G1 X119.155 Y77.719 E13.90116
G1 X122.396 Y78.819 E14.00362
G1 X123.29 Y79.189 E14.03258
G1 X126.362 Y80.705 E14.13512
G1 X127.196 Y81.186 E14.16394
G1 X130.046 Y83.09 E14.26654
G1 X130.816 Y83.682 E14.29562
G1 X133.385 Y85.938 E14.39796
G1 X134.061 Y86.614 E14.42658
G1 X136.321 Y89.188 E14.52911
G1 X136.911 Y89.957 E14.55813
G1 X138.814 Y92.805 E14.66066
G1 X139.296 Y93.638 E14.68947
G1 X140.812 Y96.709 E14.79199
G1 X141.183 Y97.607 E14.82107
G1 X142.283 Y100.852 E14.92364
G1 X142.532 Y101.779 E14.95237
G1 X143.202 Y105.141 E15.05499
G1 X143.328 Y106.1 E15.08394
G1 X143.552 Y109.516 E15.18641
G1 X143.552 Y110.483 E15.21536
G1 X143.327 Y113.904 E15.31799
G1 X143.201 Y114.862 E15.34691
G1 X142.531 Y118.224 E15.44953
G1 X142.282 Y119.153 E15.47832
G1 X141.182 Y122.395 E15.5808
G1 X140.811 Y123.29 E15.6098
G1 X139.295 Y126.362 E15.71234
G1 X138.814 Y127.196 E15.74116
G1 X136.91 Y130.046 E15.84376
G1 X136.32 Y130.814 E15.87275
G1 X134.063 Y133.386 E15.97518
G1 X133.383 Y134.066 E16.00397
G1 X130.808 Y136.325 E16.10651
G1 X130.038 Y136.915 E16.13555
G1 X127.187 Y138.818 E16.23815
G1 X126.356 Y139.298 E16.26688
G1 X123.284 Y140.814 E16.36943
G1 X122.387 Y141.185 E16.39848
G1 X119.145 Y142.284 E16.50095
G1 X118.216 Y142.533 E16.52974
G1 X114.854 Y143.202 E16.63236
G1 X113.897 Y143.328 E16.66125
G1 X110.48 Y143.552 E16.76375
G1 X109.512 Y143.552 E16.79273
G1 X106.095 Y143.327 E16.89524
G1 X105.138 Y143.201 E16.92413
G1 X101.775 Y142.531 E17.02678
G1 X100.845 Y142.281 E17.0556
G1 X97.604 Y141.181 E17.15806
G1 X96.71 Y140.811 E17.18702
G1 X93.638 Y139.295 E17.28956
G1 X92.804 Y138.814 E17.31838
G1 X89.954 Y136.91 E17.42098
G1 X89.184 Y136.318 E17.45006
G1 X86.613 Y134.06 E17.55249
G1 X85.937 Y133.384 E17.5811
G1 X83.679 Y130.812 E17.68355
G1 X83.088 Y130.043 E17.71259
G1 X81.184 Y127.193 E17.81518
G1 X80.701 Y126.355 E17.84414
G1 X79.188 Y123.285 E17.94659
G1 X78.82 Y122.397 E17.97536
G1 X77.718 Y119.153 E18.07792
G1 X77.468 Y118.22 E18.10683
G1 X76.798 Y114.855 E18.20954
G1 X76.672 Y113.897 E18.23846
G1 X76.448 Y110.481 E18.34094
G1 X76.448 Y109.513 E18.36991
G1 X76.673 Y106.095 E18.47245
G1 X76.799 Y105.138 E18.50134
G1 X77.469 Y101.776 E18.60396
G1 X77.718 Y100.847 E18.63275
G1 X78.818 Y97.605 E18.73523
G1 X79.189 Y96.71 E18.76423
G1 X80.705 Y93.638 E18.86678
G1 X81.186 Y92.804 E18.8956
G1 X83.09 Y89.954 E18.9982
G1 X83.68 Y89.186 E19.02719
G1 X85.937 Y86.614 E19.12962
M204 S500
M205 X8 Y8
G0 F6000 X86.208 Y86.852
M204 S150
M205 X1 Y1
G1 F480 X86.854 Y86.205 E19.15699
G1 X89.429 Y83.946 E19.25953
G1 X90.162 Y83.384 E19.28717
G1 X93.013 Y81.481 E19.38978
G1 X93.803 Y81.025 E19.41709
G1 X96.875 Y79.509 E19.51963
G1 X97.728 Y79.156 E19.54727
G1 X100.97 Y78.057 E19.64974
G1 X101.854 Y77.82 E19.67713
G1 X105.216 Y77.151 E19.77974
G1 X106.127 Y77.031 E19.80725
G1 X109.544 Y76.807 E19.90975
G1 X110.464 Y76.807 E19.93729
G1 X113.881 Y77.032 E20.0398
G1 X114.792 Y77.152 E20.06731
G1 X118.155 Y77.822 E20.16995
G1 X119.039 Y78.059 E20.19735
G1 X122.28 Y79.159 E20.2998
G1 X123.131 Y79.512 E20.32738
G1 X126.203 Y81.028 E20.42992
G1 X126.996 Y81.486 E20.45734
G1 X129.846 Y83.39 E20.55994
G1 X130.578 Y83.952 E20.58756
G1 X133.147 Y86.208 E20.6899
G1 X133.79 Y86.851 E20.71712
G1 X136.05 Y89.425 E20.81966
G1 X136.612 Y90.157 E20.84728
G1 X138.515 Y93.005 E20.94982
G1 X138.973 Y93.798 E20.97723
G1 X140.489 Y96.869 E21.07975
G1 X140.842 Y97.722 E21.10738
G1 X141.942 Y100.967 E21.20995
G1 X142.179 Y101.849 E21.23729
G1 X142.849 Y105.211 E21.3399
G1 X142.969 Y106.124 E21.36747
G1 X143.193 Y109.54 E21.46994
G1 X143.193 Y110.46 E21.49748
G1 X142.968 Y113.881 E21.60011
G1 X142.848 Y114.792 E21.62761
G1 X142.178 Y118.154 E21.73023
G1 X141.941 Y119.038 E21.75763
G1 X140.841 Y122.28 E21.86011
G1 X140.488 Y123.131 E21.88769
G1 X138.972 Y126.203 E21.99023
G1 X138.514 Y126.996 E22.01764
G1 X136.61 Y129.846 E22.12024
G1 X136.049 Y130.576 E22.1478
G1 X133.792 Y133.148 E22.25023
G1 X133.146 Y133.795 E22.2776
G1 X130.571 Y136.054 E22.38014
G1 X129.838 Y136.616 E22.40779
G1 X126.987 Y138.519 E22.5104
G1 X126.197 Y138.975 E22.5377
G1 X123.125 Y140.491 E22.64025
G1 X122.272 Y140.844 E22.66788
G1 X119.03 Y141.943 E22.77035
G1 X118.146 Y142.18 E22.79775
G1 X114.784 Y142.849 E22.90036
G1 X113.873 Y142.969 E22.92786
G1 X110.456 Y143.193 E23.03037
G1 X109.536 Y143.193 E23.05791
G1 X106.119 Y142.968 E23.16041
G1 X105.208 Y142.848 E23.18792
G1 X101.845 Y142.178 E23.29057
G1 X100.961 Y141.941 E23.31796
G1 X97.72 Y140.841 E23.42041
G1 X96.869 Y140.488 E23.44799
G1 X93.797 Y138.972 E23.55054
G1 X93.004 Y138.514 E23.57795
G1 X90.154 Y136.61 E23.68055
G1 X89.422 Y136.048 E23.70818
G1 X86.851 Y133.79 E23.8106
G1 X86.208 Y133.146 E23.83784
G1 X83.95 Y130.574 E23.9403
G1 X83.388 Y129.843 E23.9679
G1 X81.484 Y126.993 E24.0705
G1 X81.024 Y126.196 E24.09804
G1 X79.511 Y123.126 E24.20049
G1 X79.161 Y122.281 E24.22787
G1 X78.059 Y119.037 E24.33043
G1 X77.821 Y118.15 E24.35792
G1 X77.151 Y114.785 E24.46062
G1 X77.031 Y113.873 E24.48816
G1 X76.807 Y110.457 E24.59063
G1 X76.807 Y109.537 E24.61817
G1 X77.032 Y106.119 E24.72071
G1 X77.152 Y105.208 E24.74822
G1 X77.822 Y101.846 E24.85083
G1 X78.059 Y100.962 E24.87823
G1 X79.159 Y97.72 E24.98071
G1 X79.512 Y96.869 E25.00829
G1 X81.028 Y93.797 E25.11083
G1 X81.486 Y93.004 E25.13825
G1 X83.39 Y90.154 E25.24085
G1 X83.951 Y89.424 E25.2684
G1 X86.208 Y86.852 E25.37084
M204 S500
M205 X8 Y8
G0 F6000 X86.478 Y87.089
M204 S150
M205 X1 Y1
G1 F480 X87.092 Y86.476 E25.39681
G1 X89.667 Y84.217 E25.49934
G1 X90.362 Y83.684 E25.52556
G1 X93.213 Y81.781 E25.62817
G1 X93.963 Y81.348 E25.65409
G1 X97.035 Y79.832 E25.75664
G1 X97.844 Y79.497 E25.78285
G1 X101.086 Y78.398 E25.88532
G1 X101.924 Y78.173 E25.91129
G1 X105.286 Y77.504 E26.01391
G1 X106.15 Y77.39 E26.03999
G1 X109.567 Y77.166 E26.1425
G1 X110.441 Y77.166 E26.16866
G1 X113.858 Y77.391 E26.27117
G1 X114.721 Y77.505 E26.29722
G1 X118.084 Y78.175 E26.39987
G1 X118.923 Y78.4 E26.42587
G1 X122.164 Y79.5 E26.52832
G1 X122.971 Y79.835 E26.55448
G1 X126.043 Y81.351 E26.65703
G1 X126.796 Y81.785 E26.68304
G1 X129.646 Y83.689 E26.78564
G1 X130.341 Y84.223 E26.81188
G1 X132.91 Y86.479 E26.91422
G1 X133.52 Y87.089 E26.94004
G1 X135.78 Y89.663 E27.04258
G1 X136.313 Y90.357 E27.06877
G1 X138.216 Y93.205 E27.17131
G1 X138.65 Y93.957 E27.1973
G1 X140.166 Y97.028 E27.29981
G1 X140.501 Y97.838 E27.32605
G1 X141.601 Y101.083 E27.42862
G1 X141.826 Y101.919 E27.45453
G1 X142.496 Y105.281 E27.55715
G1 X142.61 Y106.147 E27.5833
G1 X142.834 Y109.563 E27.68577
G1 X142.834 Y110.436 E27.7119
G1 X142.609 Y113.857 E27.81453
G1 X142.495 Y114.722 E27.84065
G1 X141.825 Y118.084 E27.94326
G1 X141.6 Y118.922 E27.96924
G1 X140.5 Y122.164 E28.07172
G1 X140.165 Y122.971 E28.09787
G1 X138.649 Y126.043 E28.20042
G1 X138.215 Y126.796 E28.22644
G1 X136.311 Y129.646 E28.32903
G1 X135.779 Y130.339 E28.35519
G1 X133.522 Y132.911 E28.45762
G1 X132.908 Y133.524 E28.48359
G1 X130.333 Y135.783 E28.58613
G1 X129.638 Y136.316 E28.61234
G1 X126.787 Y138.219 E28.71495
G1 X126.037 Y138.652 E28.74088
G1 X122.965 Y140.168 E28.84342
G1 X122.156 Y140.503 E28.86963
G1 X118.914 Y141.602 E28.9721
G1 X118.076 Y141.827 E28.99808
G1 X114.714 Y142.496 E29.10069
G1 X113.85 Y142.61 E29.12677
G1 X110.433 Y142.834 E29.22928
G1 X109.559 Y142.834 E29.25544
G1 X106.142 Y142.609 E29.35795
G1 X105.279 Y142.495 E29.38401
G1 X101.916 Y141.825 E29.48665
G1 X101.077 Y141.6 E29.51265
G1 X97.836 Y140.5 E29.61511
G1 X97.029 Y140.165 E29.64126
G1 X93.957 Y138.649 E29.74381
G1 X93.204 Y138.215 E29.76982
G1 X90.354 Y136.311 E29.87242
G1 X89.659 Y135.777 E29.89866
G1 X87.088 Y133.519 E30.00109
G1 X86.478 Y132.909 E30.02691
G1 X84.22 Y130.337 E30.12936
G1 X83.687 Y129.643 E30.15555
G1 X81.783 Y126.793 E30.25815
G1 X81.347 Y126.037 E30.28428
G1 X79.834 Y122.967 E30.38673
G1 X79.502 Y122.165 E30.41271
G1 X78.4 Y118.921 E30.51527
G1 X78.174 Y118.08 E30.54134
G1 X77.504 Y114.715 E30.64404
G1 X77.39 Y113.85 E30.67016
G1 X77.166 Y110.434 E30.77263
G1 X77.166 Y109.561 E30.79877
G1 X77.391 Y106.143 E30.9013
G1 X77.505 Y105.278 E30.92742
G1 X78.175 Y101.916 E31.03004
G1 X78.4 Y101.078 E31.05601
G1 X79.5 Y97.836 E31.15849
G1 X79.835 Y97.029 E31.18465
G1 X81.351 Y93.957 E31.28719
G1 X81.785 Y93.204 E31.31321
