;FLAVOR:Marlin
;TIME:13513
;Filament used: 10.9591m
;Layer height: 0.2
;MINX:84.013
;MINY:84.013
;MINZ:0.2
;MAXX:135.987
;MAXY:135.987
;MAXZ:67
;Generated with Cura_SteamEngine 5.2.1
M82 ;absolute extrusion mode
; Ender 3 Custom Start G-code
G92 E0 ; Reset Extruder
G28 ; Home all axes
M104 S175 ; Start heating up the nozzle most of the way
M190 S60 ; Start heating the bed, wait until target temperature reached
M109 S215 ; Finish heating the nozzle
G1 Z2.0 F3000 ; Move Z Axis up little to prevent scratching of Heat Bed
G1 X0.1 Y20 Z0.3 F5000.0 ; Move to start position
G1 X0.1 Y200.0 Z0.3 F1500.0 E15 ; Draw the first line
G1 X0.4 Y200.0 Z0.3 F5000.0 ; Move to side a little
G1 X0.4 Y20 Z0.3 F1500.0 E30 ; Draw the second line
G92 E0 ; Reset Extruder
G1 Z2.0 F3000 ; Move Z Axis up little to prevent scratching of Heat Bed
G1 X5 Y20 Z0.3 F5000.0 ; Move over to prevent blob squish
G92 E0
G92 E0
G1 F2400 E-1.5
;LAYER_COUNT:335
;LAYER:0
M107
M204 S500
M205 X8 Y8
;MESH:Cone.stl
G0 F6000 X109.998 Y135.646 Z0.2
M204 S150
M205 X1 Y1
;TYPE:WALL-INNER
G1 F2400 E0
G1 F480 X113.343 Y135.427 E0.10034
G1 X116.636 Y134.772 E0.20085
G1 X119.809 Y133.695 E0.30115
G1 X122.821 Y132.21 E0.40168
G1 X125.611 Y130.347 E0.5021
G1 X128.134 Y128.136 E0.60252
G1 X130.345 Y125.614 E0.70292
G1 X132.207 Y122.827 E0.80325
G1 X133.691 Y119.815 E0.90376
G1 X134.77 Y116.642 E1.00408
G1 X135.426 Y113.349 E1.10459
G1 X135.646 Y109.997 E1.20515
G1 X135.538 Y108.327 E1.25524
G1 X135.427 Y106.652 E1.30549
G1 X134.771 Y103.361 E1.40594
G1 X133.694 Y100.186 E1.5063
G1 X132.209 Y97.176 E1.60677
G1 X130.345 Y94.387 E1.70719
G1 X128.133 Y91.865 E1.80761
G1 X125.614 Y89.655 E1.90792
G1 X122.827 Y87.793 E2.00825
G1 X119.815 Y86.309 E2.10876
G1 X116.643 Y85.23 E2.20905
G1 X113.349 Y84.574 E2.30959
G1 X110.002 Y84.354 E2.41
G1 X106.657 Y84.573 E2.51034
G1 X103.364 Y85.228 E2.61085
G1 X100.191 Y86.305 E2.71115
G1 X97.179 Y87.79 E2.81168
G1 X94.389 Y89.653 E2.9121
G1 X91.866 Y91.864 E3.01252
G1 X89.655 Y94.386 E3.11292
G1 X87.793 Y97.173 E3.21325
G1 X86.308 Y100.185 E3.31377
G1 X85.23 Y103.358 E3.41409
G1 X84.574 Y106.651 E3.5146
G1 X84.354 Y110 E3.61506
G1 X84.573 Y113.343 E3.71535
G1 X85.229 Y116.639 E3.81594
G1 X86.309 Y119.814 E3.91633
G1 X87.791 Y122.824 E4.01676
G1 X89.653 Y125.611 E4.1171
G1 X91.865 Y128.133 E4.21751
G1 X94.384 Y130.343 E4.31782
G1 X97.173 Y132.207 E4.41824
G1 X100.185 Y133.692 E4.51876
G1 X103.357 Y134.77 E4.61905
G1 X106.651 Y135.426 E4.71959
G1 X109.998 Y135.646 E4.81999
M204 S500
M205 X8 Y8
G0 F6000 X109.998 Y135.987
M204 S150
M205 X1 Y1
;TYPE:WALL-OUTER
G1 F480 X113.387 Y135.765 E4.92166
G1 X116.725 Y135.101 E5.02354
G1 X119.94 Y134.009 E5.12517
G1 X122.991 Y132.505 E5.227
G1 X125.819 Y130.617 E5.32878
G1 X128.375 Y128.377 E5.43052
G1 X130.615 Y125.821 E5.53225
G1 X132.502 Y122.997 E5.63392
G1 X134.006 Y119.946 E5.73574
G1 X135.099 Y116.731 E5.83739
G1 X135.764 Y113.393 E5.93928
G1 X135.987 Y109.997 E6.04115
G1 X135.877 Y108.305 E6.09191
G1 X135.765 Y106.608 E6.14281
G1 X135.1 Y103.272 E6.24464
G1 X134.008 Y100.055 E6.34633
G1 X132.504 Y97.006 E6.4481
G1 X130.615 Y94.18 E6.54986
G1 X128.374 Y91.624 E6.65161
G1 X125.821 Y89.385 E6.75326
G1 X122.997 Y87.498 E6.85493
G1 X119.946 Y85.994 E6.95675
G1 X116.732 Y84.901 E7.05837
G1 X113.393 Y84.236 E7.16028
G1 X110.002 Y84.013 E7.26201
G1 X106.613 Y84.235 E7.36367
G1 X103.275 Y84.899 E7.46555
G1 X100.06 Y85.991 E7.56719
G1 X97.009 Y87.495 E7.66901
G1 X94.181 Y89.383 E7.7708
G1 X91.625 Y91.623 E7.87253
G1 X89.385 Y94.178 E7.97424
G1 X87.498 Y97.003 E8.07594
G1 X85.994 Y100.054 E8.17776
G1 X84.901 Y103.269 E8.27941
G1 X84.236 Y106.607 E8.38129
G1 X84.013 Y110 E8.48308
G1 X84.235 Y113.387 E8.58468
G1 X84.9 Y116.728 E8.68665
G1 X85.995 Y119.945 E8.78838
G1 X87.496 Y122.994 E8.89011
G1 X89.383 Y125.818 E8.99178
G1 X91.624 Y128.374 E9.09353
G1 X94.177 Y130.614 E9.1952
G1 X97.003 Y132.502 E9.29694
G1 X100.054 Y134.006 E9.39876
G1 X103.268 Y135.099 E9.50038
G1 X106.607 Y135.764 E9.60229
G1 X109.998 Y135.987 E9.70402
M204 S500
M205 X8 Y8
G0 F6000 X109.999 Y135.321
M204 S150
M205 X1 Y1
;TYPE:SKIN
G1 F480 X113.298 Y135.105 E9.80298
G1 X116.554 Y134.457 E9.90236
G1 X119.683 Y133.394 E10.00128
G1 X122.659 Y131.927 E10.1006
G1 X125.414 Y130.088 E10.19975
G1 X127.906 Y127.906 E10.2989
G1 X130.088 Y125.415 E10.39803
G1 X131.924 Y122.665 E10.49701
G1 X133.391 Y119.688 E10.59635
G1 X134.455 Y116.56 E10.69526
G1 X135.104 Y113.305 E10.79461
G1 X135.321 Y109.994 E10.89394
G1 X135.105 Y106.694 E10.99293
G1 X134.456 Y103.443 E11.09217
G1 X133.393 Y100.311 E11.19117
G1 X132.66 Y98.824 E11.2408
G1 X131.926 Y97.338 E11.29041
G1 X130.086 Y94.584 E11.38956
G1 X127.903 Y92.093 E11.4887
G1 X125.415 Y89.912 E11.58774
G1 X122.665 Y88.076 E11.68672
G1 X119.688 Y86.61 E11.78606
G1 X116.561 Y85.545 E11.88494
G1 X113.305 Y84.896 E11.98432
G1 X110.001 Y84.679 E12.08344
G1 X106.701 Y84.895 E12.18243
G1 X103.446 Y85.543 E12.28178
G1 X100.318 Y86.606 E12.38067
G1 X97.341 Y88.073 E12.48002
G1 X94.586 Y89.912 E12.57917
G1 X92.094 Y92.094 E12.67832
G1 X89.912 Y94.585 E12.77745
G1 X88.076 Y97.335 E12.87643
G1 X86.609 Y100.312 E12.97578
G1 X85.545 Y103.44 E13.07468
G1 X84.896 Y106.695 E13.17403
G1 X84.679 Y110.003 E13.27327
G1 X84.895 Y113.299 E13.37214
G1 X85.54 Y116.541 E13.47109
G1 X86.61 Y119.687 E13.57056
G1 X88.075 Y122.662 E13.66983
G1 X89.91 Y125.412 E13.76879
G1 X92.093 Y127.903 E13.86794
G1 X94.581 Y130.084 E13.96698
G1 X97.335 Y131.924 E14.06612
G1 X100.312 Y133.391 E14.16547
G1 X103.44 Y134.455 E14.26437
G1 X106.695 Y135.104 E14.36372
G1 X109.999 Y135.321 E14.46284
M204 S500
M205 X8 Y8
G0 F6000 X109.983 Y135.564
G0 X106.67 Y135.286
G0 X103.394 Y134.634
G0 X100.239 Y133.561
G0 X97.543 Y132.233
G0 X94.816 Y130.534
G0 X95.052 Y130.181
M204 S150
M205 X1 Y1
G1 F480 X89.813 Y124.942 E14.68462
M204 S500
M205 X8 Y8
G0 F6000 X89.46 Y125.177
G0 X88.438 Y123.647
G0 X88.792 Y123.412
M204 S150
M205 X1 Y1
G1 F480 X96.587 Y131.207 E15.01461
M204 S500
M205 X8 Y8
G0 F6000 X96.35 Y131.56
G0 X97.692 Y132.373
G0 X97.881 Y131.992
M204 S150
M205 X1 Y1
G1 F480 X88.008 Y122.119 E15.43257
M204 S500
M205 X8 Y8
G0 F6000 X87.626 Y122.307
G0 X87.132 Y121.304
G0 X87.515 Y121.116
M204 S150
M205 X1 Y1
G1 F480 X98.883 Y132.485 E15.91383
M204 S500
M205 X8 Y8
G0 F6000 X98.694 Y132.866
G0 X99.698 Y133.361
G0 X99.887 Y132.979
M204 S150
M205 X1 Y1
G1 F480 X87.02 Y120.113 E16.45851
M204 S500
M205 X8 Y8
G0 F6000 X86.643 Y119.227
M204 S150
M205 X1 Y1
G1 F480 X100.772 Y133.356 E17.05664
M204 S500
M205 X8 Y8
G0 F6000 X101.544 Y133.619
M204 S150
M205 X1 Y1
G1 F480 X86.381 Y118.455 E17.69856
M204 S500
M205 X8 Y8
G0 F6000 X86.119 Y117.684
M204 S150
M205 X1 Y1
G1 F480 X102.316 Y133.881 E18.38423
M204 S500
M205 X8 Y8
G0 F6000 X103.088 Y134.144
M204 S150
M205 X1 Y1
G1 F480 X85.856 Y116.913 E19.1137
M204 S500
M205 X8 Y8
G0 F6000 X85.656 Y116.203
M204 S150
M205 X1 Y1
G1 F480 X103.794 Y134.341 E19.88154
M204 S500
M205 X8 Y8
G0 F6000 X104.429 Y134.467
M204 S150
M205 X1 Y1
G1 F480 X85.529 Y115.567 E20.68163
M204 S500
M205 X8 Y8
G0 F6000 X85.402 Y114.931
M204 S150
M205 X1 Y1
G1 F480 X105.066 Y134.594 E21.51405
M204 S500
M205 X8 Y8
G0 F6000 X105.701 Y134.721
M204 S150
M205 X1 Y1
G1 F480 X85.276 Y114.296 E22.37871
M204 S500
M205 X8 Y8
G0 F6000 X85.149 Y113.66
M204 S150
M205 X1 Y1
G1 F480 X106.337 Y134.848 E23.27567
M204 S500
M205 X8 Y8
G0 F6000 X106.937 Y134.938
M204 S150
M205 X1 Y1
G1 F480 X85.059 Y113.06 E24.20183
M204 S500
M205 X8 Y8
G0 F6000 X85.023 Y112.515
M204 S150
M205 X1 Y1
G1 F480 X107.482 Y134.974 E25.1526
M204 S500
M205 X8 Y8
G0 F6000 X108.027 Y135.01
M204 S150
M205 X1 Y1
G1 F480 X84.987 Y111.971 E26.12793
M204 S500
M205 X8 Y8
G0 F6000 X84.951 Y111.425
M204 S150
M205 X1 Y1
G1 F480 X108.572 Y135.046 E27.12789
M204 S500
M205 X8 Y8
G0 F6000 X109.117 Y135.082
M204 S150
M205 X1 Y1
G1 F480 X84.916 Y110.881 E28.15239
M204 S500
M205 X8 Y8
G0 F6000 X84.88 Y110.336
M204 S150
M205 X1 Y1
G1 F480 X109.662 Y135.118 E29.2015
M204 S500
M205 X8 Y8
G0 F6000 X110.181 Y135.128
M204 S150
M205 X1 Y1
G1 F480 X84.871 Y109.817 E30.27297
M204 S500
M205 X8 Y8
G0 F6000 X84.902 Y109.339
M204 S150
M205 X1 Y1
G1 F480 X110.659 Y135.096 E31.36335
M204 S500
M205 X8 Y8
G0 F6000 X111.136 Y135.065
M204 S150
M205 X1 Y1
G1 F480 X84.933 Y108.861 E32.47263
M204 S500
M205 X8 Y8
G0 F6000 X84.965 Y108.384
M204 S150
M205 X1 Y1
G1 F480 X111.614 Y135.034 E33.60079
M204 S500
M205 X8 Y8
G0 F6000 X112.091 Y135.002
M204 S150
M205 X1 Y1
G1 F480 X84.996 Y107.906 E34.74783
M204 S500
M205 X8 Y8
G0 F6000 X85.027 Y107.428
M204 S150
M205 X1 Y1
G1 F480 X112.569 Y134.971 E35.91379
M204 S500
M205 X8 Y8
G0 F6000 X113.047 Y134.94
M204 S150
M205 X1 Y1
G1 F480 X85.059 Y106.951 E37.09863
M204 S500
M205 X8 Y8
G0 F6000 X85.117 Y106.5
M204 S150
M205 X1 Y1
G1 F480 X113.497 Y134.879 E38.30003
M204 S500
M205 X8 Y8
G0 F6000 X113.921 Y134.795
M204 S150
M205 X1 Y1
G1 F480 X85.202 Y106.075 E39.51582
M204 S500
M205 X8 Y8
G0 F6000 X85.286 Y105.651
M204 S150
M205 X1 Y1
G1 F480 X114.346 Y134.711 E40.74602
M204 S500
M205 X8 Y8
G0 F6000 X114.771 Y134.626
M204 S150
M205 X1 Y1
G1 F480 X85.371 Y105.227 E41.9906
M204 S500
M205 X8 Y8
G0 F6000 X85.455 Y104.802
M204 S150
M205 X1 Y1
G1 F480 X115.196 Y134.542 E43.24961
M204 S500
M205 X8 Y8
G0 F6000 X115.621 Y134.458
M204 S150
M205 X1 Y1
G1 F480 X85.54 Y104.378 E44.52302
M204 S500
M205 X8 Y8
G0 F6000 X85.625 Y103.953
M204 S150
M205 X1 Y1
G1 F480 X116.045 Y134.373 E45.81079
M204 S500
M205 X8 Y8
G0 F6000 X116.47 Y134.289
M204 S150
M205 X1 Y1
G1 F480 X85.709 Y103.528 E47.11301
M204 S500
M205 X8 Y8
G0 F6000 X85.834 Y103.144
M204 S150
M205 X1 Y1
G1 F480 X116.854 Y134.164 E48.42618
M204 S500
M205 X8 Y8
G0 F6000 X117.234 Y134.034
M204 S150
M205 X1 Y1
G1 F480 X85.963 Y102.764 E49.74997
M204 S500
M205 X8 Y8
G0 F6000 X86.093 Y102.384
M204 S150
M205 X1 Y1
G1 F480 X117.613 Y133.905 E51.08433
M204 S500
M205 X8 Y8
G0 F6000 X117.993 Y133.776
M204 S150
M205 X1 Y1
G1 F480 X86.222 Y102.005 E52.4293
M204 S500
M205 X8 Y8
G0 F6000 X86.351 Y101.624
M204 S150
M205 X1 Y1
G1 F480 X118.373 Y133.647 E53.78492
M204 S500
M205 X8 Y8
G0 F6000 X118.753 Y133.518
M204 S150
M205 X1 Y1
G1 F480 X86.48 Y101.244 E55.15116
M204 S500
M205 X8 Y8
G0 F6000 X86.609 Y100.865
M204 S150
M205 X1 Y1
G1 F480 X119.133 Y133.388 E56.52798
M204 S500
M205 X8 Y8
G0 F6000 X119.513 Y133.259
M204 S150
M205 X1 Y1
G1 F480 X86.739 Y100.485 E57.91541
M204 S500
M205 X8 Y8
G0 F6000 X86.896 Y100.133
M204 S150
M205 X1 Y1
G1 F480 X119.865 Y133.102 E59.3111
M204 S500
M205 X8 Y8
G0 F6000 X120.206 Y132.933
M204 S150
M205 X1 Y1
G1 F480 X87.064 Y99.792 E60.71408
M204 S500
M205 X8 Y8
G0 F6000 X87.232 Y99.451
M204 S150
M205 X1 Y1
G1 F480 X120.546 Y132.765 E62.12437
M204 S500
M205 X8 Y8
G0 F6000 X120.888 Y132.598
M204 S150
M205 X1 Y1
G1 F480 X87.4 Y99.11 E63.54203
M204 S500
M205 X8 Y8
G0 F6000 X87.568 Y98.769
M204 S150
M205 X1 Y1
G1 F480 X121.229 Y132.429 E64.96699
M204 S500
M205 X8 Y8
G0 F6000 X121.57 Y132.261
M204 S150
M205 X1 Y1
G1 F480 X87.737 Y98.428 E66.39925
M204 S500
M205 X8 Y8
G0 F6000 X87.904 Y98.087
M204 S150
M205 X1 Y1
G1 F480 X121.911 Y132.093 E67.83885
M204 S500
M205 X8 Y8
G0 F6000 X122.252 Y131.925
M204 S150
M205 X1 Y1
G1 F480 X88.072 Y97.746 E69.28578
M204 S500
M205 X8 Y8
G0 F6000 X88.243 Y97.407
M204 S150
M205 X1 Y1
G1 F480 X122.591 Y131.755 E70.73985
M204 S500
M205 X8 Y8
G0 F6000 X122.895 Y131.55
M204 S150
M205 X1 Y1
G1 F480 X88.447 Y97.102 E72.19814
M204 S500
M205 X8 Y8
G0 F6000 X88.65 Y96.796
M204 S150
M205 X1 Y1
G1 F480 X123.201 Y131.347 E73.6608
M204 S500
M205 X8 Y8
G0 F6000 X123.506 Y131.143
M204 S150
M205 X1 Y1
G1 F480 X88.854 Y96.491 E75.12773
M204 S500
M205 X8 Y8
G0 F6000 X89.057 Y96.185
M204 S150
M205 X1 Y1
G1 F480 X123.812 Y130.939 E76.599
M204 S500
M205 X8 Y8
G0 F6000 X124.117 Y130.736
M204 S150
M205 X1 Y1
G1 F480 X89.262 Y95.88 E78.07454
M204 S500
M205 X8 Y8
G0 F6000 X89.465 Y95.575
M204 S150
M205 X1 Y1
G1 F480 X124.422 Y130.531 E79.55437
M204 S500
M205 X8 Y8
G0 F6000 X124.727 Y130.328
M204 S150
M205 X1 Y1
G1 F480 X89.669 Y95.269 E81.03851
M204 S500
M205 X8 Y8
G0 F6000 X89.873 Y94.964
M204 S150
M205 X1 Y1
G1 F480 X125.033 Y130.124 E82.52694
M204 S500
M205 X8 Y8
G0 F6000 X125.334 Y129.916
M204 S150
M205 X1 Y1
G1 F480 X90.081 Y94.663 E84.01932
M204 S500
M205 X8 Y8
G0 F6000 X90.318 Y94.391
M204 S150
M205 X1 Y1
G1 F480 X125.606 Y129.679 E85.51317
M204 S500
M205 X8 Y8
G0 F6000 X125.877 Y129.441
M204 S150
M205 X1 Y1
G1 F480 X90.556 Y94.12 E87.00842
M204 S500
M205 X8 Y8
G0 F6000 X90.794 Y93.849
M204 S150
M205 X1 Y1
G1 F480 X126.149 Y129.203 E88.5051
M204 S500
M205 X8 Y8
G0 F6000 X126.42 Y128.965
M204 S150
M205 X1 Y1
G1 F480 X91.032 Y93.577 E90.00318
M204 S500
M205 X8 Y8
G0 F6000 X91.269 Y93.306
M204 S150
M205 X1 Y1
G1 F480 X126.691 Y128.728 E91.50271
M204 S500
M205 X8 Y8
G0 F6000 X126.963 Y128.49
M204 S150
M205 X1 Y1
G1 F480 X91.508 Y93.035 E93.00364
M204 S500
M205 X8 Y8
G0 F6000 X91.745 Y92.763
M204 S150
M205 X1 Y1
G1 F480 X127.234 Y128.252 E94.506
M204 S500
M205 X8 Y8
G0 F6000 X127.506 Y128.015
M204 S150
M205 X1 Y1
G1 F480 X91.983 Y92.492 E96.00981
M204 S500
M205 X8 Y8
G0 F6000 X92.221 Y92.221
M204 S150
M205 X1 Y1
G1 F480 X127.777 Y127.777 E97.51501
M204 S500
M205 X8 Y8
G0 F6000 X128.016 Y127.506
M204 S150
M205 X1 Y1
G1 F480 X92.493 Y91.983 E99.01881
M204 S500
M205 X8 Y8
G0 F6000 X92.764 Y91.746
M204 S150
M205 X1 Y1
G1 F480 X128.253 Y127.235 E100.52117
M204 S500
M205 X8 Y8
G0 F6000 X128.491 Y126.963
M204 S150
M205 X1 Y1
G1 F480 X93.036 Y91.508 E102.0221
M204 S500
M205 X8 Y8
G0 F6000 X93.307 Y91.271
M204 S150
M205 X1 Y1
G1 F480 X128.729 Y126.693 E103.52163
M204 S500
M205 X8 Y8
G0 F6000 X128.967 Y126.421
M204 S150
M205 X1 Y1
G1 F480 X93.579 Y91.033 E105.01972
M204 S500
M205 X8 Y8
G0 F6000 X93.85 Y90.795
M204 S150
M205 X1 Y1
G1 F480 X129.204 Y126.149 E106.51637
M204 S500
M205 X8 Y8
G0 F6000 X129.442 Y125.879
M204 S150
M205 X1 Y1
G1 F480 X94.121 Y90.557 E108.01164
M204 S500
M205 X8 Y8
G0 F6000 X94.393 Y90.32
M204 S150
M205 X1 Y1
G1 F480 X129.68 Y125.607 E109.50545
M204 S500
M205 X8 Y8
G0 F6000 X129.918 Y125.336
M204 S150
M205 X1 Y1
G1 F480 X94.664 Y90.082 E110.99787
M204 S500
M205 X8 Y8
G0 F6000 X94.965 Y89.874
M204 S150
M205 X1 Y1
G1 F480 X130.126 Y125.034 E112.48633
M204 S500
M205 X8 Y8
G0 F6000 X130.329 Y124.729
M204 S150
M205 X1 Y1
G1 F480 X95.271 Y89.671 E113.97044
M204 S500
M205 X8 Y8
G0 F6000 X95.576 Y89.467
M204 S150
M205 X1 Y1
G1 F480 X130.533 Y124.423 E115.45027
M204 S500
M205 X8 Y8
G0 F6000 X130.736 Y124.118
M204 S150
M205 X1 Y1
G1 F480 X95.881 Y89.263 E116.92579
M204 S500
M205 X8 Y8
G0 F6000 X96.187 Y89.059
M204 S150
M205 X1 Y1
G1 F480 X130.941 Y123.813 E118.39704
M204 S500
M205 X8 Y8
G0 F6000 X131.144 Y123.508
M204 S150
M205 X1 Y1
G1 F480 X96.492 Y88.855 E119.86399
M204 S500
M205 X8 Y8
G0 F6000 X96.797 Y88.652
M204 S150
M205 X1 Y1
G1 F480 X131.348 Y123.202 E121.32663
M204 S500
M205 X8 Y8
G0 F6000 X131.552 Y122.897
M204 S150
M205 X1 Y1
G1 F480 X97.103 Y88.448 E122.78497
M204 S500
M205 X8 Y8
G0 F6000 X97.408 Y88.244
M204 S150
M205 X1 Y1
G1 F480 X131.755 Y122.591 E124.23899
M204 S500
M205 X8 Y8
G0 F6000 X131.926 Y122.253
M204 S150
M205 X1 Y1
G1 F480 X97.746 Y88.073 E125.68594
M204 S500
M205 X8 Y8
G0 F6000 X98.088 Y87.906
M204 S150
M205 X1 Y1
G1 F480 X132.093 Y121.911 E127.12548
M204 S500
M205 X8 Y8
G0 F6000 X132.262 Y121.57
M204 S150
M205 X1 Y1
G1 F480 X98.429 Y87.737 E128.55774
M204 S500
