;FLAVOR:Marlin
;TIME:8612
;Filament used: 1.74874m
;Layer height: 0.08
;MINX:72.4
;MINY:72.4
;MINZ:0.12
;MAXX:147.6
;MAXY:147.6
;MAXZ:4.6
;Generated with Cura_SteamEngine 5.2.1
M82 ;absolute extrusion mode
; Ender 3 Custom Start G-code
G92 E0 ; Reset Extruder
G28 ; Home all axes
M104 S175 ; Start heating up the nozzle most of the way
M190 S65 ; Start heating the bed, wait until target temperature reached
M109 S215 ; Finish heating the nozzle
G1 Z2.0 F3000 ; Move Z Axis up little to prevent scratching of Heat Bed
G1 X0.1 Y20 Z0.3 F5000.0 ; Move to start position
G1 X0.1 Y200.0 Z0.3 F1500.0 E15 ; Draw the first line
G1 X0.4 Y200.0 Z0.3 F5000.0 ; Move to side a little
G1 X0.4 Y20 Z0.3 F1500.0 E30 ; Draw the second line
G92 E0 ; Reset Extruder
G1 Z2.0 F3000 ; Move Z Axis up little to prevent scratching of Heat Bed
G1 X5 Y20 Z0.3 F5000.0 ; Move over to prevent blob squish
G92 E0
G92 E0
G1 F2400 E-1.5
;LAYER_COUNT:57
;LAYER:0
M107
M204 S500
M205 X8 Y8
G0 F6000 X74.828 Y74.717 Z0.12
M204 S150
M205 X1 Y1
;TYPE:SKIRT
G1 F2400 E0
G1 F480 X75.43 Y74.183 E0.01445
G1 X76.082 Y73.711 E0.02891
G1 X76.778 Y73.306 E0.04337
G1 X77.51 Y72.972 E0.05782
G1 X78.272 Y72.713 E0.07228
G1 X79.055 Y72.53 E0.08672
G1 X79.853 Y72.426 E0.10117
G1 X80.5 Y72.4 E0.1128
G1 X139.5 Y72.4 E1.17247
G1 X140.304 Y72.44 E1.18693
G1 X141.1 Y72.56 E1.20139
G1 X141.88 Y72.757 E1.21584
G1 X142.636 Y73.032 E1.23029
G1 X143.362 Y73.38 E1.24475
G1 X144.049 Y73.798 E1.25919
G1 X144.692 Y74.283 E1.27365
G1 X145.283 Y74.828 E1.28809
G1 X145.817 Y75.43 E1.30255
G1 X146.289 Y76.082 E1.317
G1 X146.694 Y76.778 E1.33147
G1 X147.028 Y77.51 E1.34592
G1 X147.287 Y78.272 E1.36037
G1 X147.47 Y79.055 E1.37481
G1 X147.574 Y79.853 E1.38927
G1 X147.6 Y80.5 E1.4009
G1 X147.6 Y139.5 E2.46056
G1 X147.56 Y140.304 E2.47502
G1 X147.44 Y141.1 E2.48948
G1 X147.243 Y141.88 E2.50393
G1 X146.968 Y142.636 E2.51838
G1 X146.62 Y143.362 E2.53284
G1 X146.202 Y144.049 E2.54728
G1 X145.717 Y144.692 E2.56175
G1 X145.172 Y145.283 E2.57619
G1 X144.57 Y145.817 E2.59064
G1 X143.918 Y146.289 E2.6051
G1 X143.222 Y146.694 E2.61956
G1 X142.49 Y147.028 E2.63401
G1 X141.728 Y147.287 E2.64846
G1 X140.945 Y147.47 E2.66291
G1 X140.147 Y147.574 E2.67736
G1 X139.5 Y147.6 E2.68899
G1 X80.5 Y147.6 E3.74866
G1 X79.696 Y147.56 E3.76312
G1 X78.9 Y147.44 E3.77757
G1 X78.12 Y147.243 E3.79202
G1 X77.364 Y146.968 E3.80647
G1 X76.638 Y146.62 E3.82093
G1 X75.951 Y146.202 E3.83537
G1 X75.308 Y145.717 E3.84984
G1 X74.717 Y145.172 E3.86428
G1 X74.183 Y144.57 E3.87873
G1 X73.711 Y143.918 E3.89319
G1 X73.306 Y143.222 E3.90765
G1 X72.972 Y142.49 E3.9221
G1 X72.713 Y141.728 E3.93656
G1 X72.53 Y140.945 E3.951
G1 X72.426 Y140.147 E3.96545
G1 X72.4 Y139.5 E3.97708
G1 X72.4 Y80.5 E5.03675
G1 X72.44 Y79.696 E5.05121
G1 X72.56 Y78.9 E5.06567
G1 X72.757 Y78.12 E5.08012
G1 X73.032 Y77.364 E5.09456
G1 X73.38 Y76.638 E5.10902
G1 X73.798 Y75.951 E5.12347
G1 X74.283 Y75.308 E5.13793
G1 X74.828 Y74.717 E5.15237
M204 S500
M205 X8 Y8
G0 F6000 X75.182 Y74.876
M204 S150
M205 X1 Y1
G1 F480 X75.781 Y74.365 E5.16651
G1 X76.428 Y73.918 E5.18064
G1 X77.117 Y73.538 E5.19477
G1 X77.841 Y73.231 E5.20889
G1 X78.593 Y72.999 E5.22303
G1 X79.364 Y72.844 E5.23715
G1 X80.5 Y72.76 E5.25761
G1 X139.5 Y72.76 E6.31728
G1 X140.286 Y72.8 E6.33141
G1 X141.063 Y72.919 E6.34553
G1 X141.824 Y73.117 E6.35966
G1 X142.562 Y73.391 E6.37379
G1 X143.268 Y73.739 E6.38793
G1 X143.934 Y74.156 E6.40204
G1 X144.555 Y74.639 E6.41617
G1 X145.124 Y75.182 E6.4303
G1 X145.635 Y75.781 E6.44444
G1 X146.082 Y76.428 E6.45857
G1 X146.462 Y77.117 E6.4727
G1 X146.769 Y77.841 E6.48682
G1 X147.001 Y78.593 E6.50096
G1 X147.156 Y79.364 E6.51508
G1 X147.24 Y80.5 E6.53554
G1 X147.24 Y139.5 E7.59521
G1 X147.2 Y140.286 E7.60934
G1 X147.081 Y141.063 E7.62346
G1 X146.883 Y141.824 E7.63758
G1 X146.609 Y142.562 E7.65172
G1 X146.261 Y143.268 E7.66586
G1 X145.844 Y143.934 E7.67997
G1 X145.361 Y144.555 E7.6941
G1 X144.818 Y145.124 E7.70823
G1 X144.219 Y145.635 E7.72237
G1 X143.572 Y146.082 E7.73649
G1 X142.883 Y146.462 E7.75063
G1 X142.159 Y146.769 E7.76475
G1 X141.407 Y147.001 E7.77888
G1 X140.636 Y147.156 E7.79301
G1 X139.5 Y147.24 E7.81347
G1 X80.5 Y147.24 E8.87314
G1 X79.714 Y147.2 E8.88727
G1 X78.937 Y147.081 E8.90139
G1 X78.176 Y146.883 E8.91551
G1 X77.438 Y146.609 E8.92965
G1 X76.732 Y146.261 E8.94379
G1 X76.066 Y145.844 E8.9579
G1 X75.445 Y145.361 E8.97203
G1 X74.876 Y144.818 E8.98616
G1 X74.365 Y144.219 E9.0003
G1 X73.918 Y143.572 E9.01442
G1 X73.538 Y142.883 E9.02855
G1 X73.231 Y142.159 E9.04268
G1 X72.999 Y141.407 E9.05681
G1 X72.844 Y140.636 E9.07094
G1 X72.76 Y139.5 E9.0914
G1 X72.76 Y80.5 E10.15106
G1 X72.8 Y79.714 E10.1652
G1 X72.919 Y78.937 E10.17932
G1 X73.117 Y78.176 E10.19344
G1 X73.391 Y77.438 E10.20758
G1 X73.739 Y76.732 E10.22172
G1 X74.156 Y76.066 E10.23583
G1 X74.639 Y75.445 E10.24996
G1 X75.182 Y74.876 E10.26408
M204 S500
M205 X8 Y8
G0 F6000 X75.536 Y75.039
M204 S150
M205 X1 Y1
G1 F480 X76.13 Y74.553 E10.27787
G1 X76.772 Y74.131 E10.29167
G1 X77.454 Y73.778 E10.30546
G1 X78.17 Y73.498 E10.31927
G1 X78.91 Y73.293 E10.33306
G1 X79.668 Y73.167 E10.34686
G1 X80.5 Y73.12 E10.36183
G1 X139.5 Y73.12 E11.4215
G1 X140.267 Y73.16 E11.43529
G1 X141.026 Y73.279 E11.44909
G1 X141.768 Y73.477 E11.46288
G1 X142.486 Y73.751 E11.47668
G1 X143.171 Y74.098 E11.49048
G1 X143.817 Y74.514 E11.50428
G1 X144.415 Y74.995 E11.51806
G1 X144.961 Y75.536 E11.53186
G1 X145.447 Y76.13 E11.54565
G1 X145.869 Y76.772 E11.55945
G1 X146.222 Y77.454 E11.57324
G1 X146.502 Y78.17 E11.58705
G1 X146.707 Y78.91 E11.60084
G1 X146.833 Y79.668 E11.61464
G1 X146.88 Y80.5 E11.62961
G1 X146.88 Y139.5 E12.68927
G1 X146.84 Y140.267 E12.70307
G1 X146.721 Y141.026 E12.71687
G1 X146.523 Y141.768 E12.73066
G1 X146.249 Y142.486 E12.74446
G1 X145.902 Y143.171 E12.75825
G1 X145.486 Y143.817 E12.77205
G1 X145.005 Y144.415 E12.78584
G1 X144.464 Y144.961 E12.79964
G1 X143.87 Y145.447 E12.81343
G1 X143.228 Y145.869 E12.82723
G1 X142.546 Y146.222 E12.84102
G1 X141.83 Y146.502 E12.85483
G1 X141.09 Y146.707 E12.86862
G1 X140.332 Y146.833 E12.88242
G1 X139.5 Y146.88 E12.89739
G1 X80.5 Y146.88 E13.95705
G1 X79.733 Y146.84 E13.97085
G1 X78.974 Y146.721 E13.98465
G1 X78.232 Y146.523 E13.99844
G1 X77.514 Y146.249 E14.01224
G1 X76.829 Y145.902 E14.02603
G1 X76.183 Y145.486 E14.03983
G1 X75.585 Y145.005 E14.05362
G1 X75.039 Y144.464 E14.06742
G1 X74.553 Y143.87 E14.08121
G1 X74.131 Y143.228 E14.09501
G1 X73.778 Y142.546 E14.1088
G1 X73.498 Y141.83 E14.12261
G1 X73.293 Y141.09 E14.1364
G1 X73.167 Y140.332 E14.1502
G1 X73.12 Y139.5 E14.16517
G1 X73.12 Y80.5 E15.22483
G1 X73.16 Y79.733 E15.23863
G1 X73.279 Y78.974 E15.25243
G1 X73.477 Y78.232 E15.26622
G1 X73.751 Y77.514 E15.28002
G1 X74.098 Y76.829 E15.29381
G1 X74.514 Y76.183 E15.30761
G1 X74.995 Y75.585 E15.3214
G1 X75.536 Y75.039 E15.3352
M204 S500
M205 X8 Y8
G0 F6000 X75.889 Y75.207
M204 S150
M205 X1 Y1
G1 F480 X76.479 Y74.746 E15.34865
G1 X77.115 Y74.35 E15.36211
G1 X77.79 Y74.024 E15.37557
G1 X78.495 Y73.772 E15.38902
G1 X79.224 Y73.597 E15.40248
G1 X79.966 Y73.5 E15.41592
G1 X80.5 Y73.48 E15.42552
G1 X139.5 Y73.48 E16.48519
G1 X140.248 Y73.52 E16.49864
G1 X140.988 Y73.639 E16.5121
G1 X141.71 Y73.837 E16.52555
G1 X142.408 Y74.11 E16.53901
G1 X143.072 Y74.457 E16.55247
G1 X143.696 Y74.872 E16.56592
G1 X144.271 Y75.351 E16.57937
G1 X144.793 Y75.889 E16.59283
G1 X145.254 Y76.479 E16.60628
G1 X145.65 Y77.115 E16.61973
G1 X145.976 Y77.79 E16.6332
G1 X146.228 Y78.495 E16.64664
G1 X146.403 Y79.224 E16.66011
G1 X146.5 Y79.966 E16.67355
G1 X146.52 Y80.5 E16.68315
G1 X146.52 Y139.5 E17.74281
G1 X146.48 Y140.248 E17.75627
G1 X146.361 Y140.988 E17.76973
G1 X146.163 Y141.71 E17.78318
G1 X145.89 Y142.408 E17.79664
G1 X145.543 Y143.072 E17.81009
G1 X145.128 Y143.696 E17.82355
G1 X144.649 Y144.271 E17.83699
G1 X144.111 Y144.793 E17.85046
G1 X143.521 Y145.254 E17.8639
G1 X142.885 Y145.65 E17.87736
G1 X142.21 Y145.976 E17.89082
G1 X141.505 Y146.228 E17.90427
G1 X140.776 Y146.403 E17.91774
G1 X140.034 Y146.5 E17.93118
G1 X139.5 Y146.52 E17.94077
G1 X80.5 Y146.52 E19.00044
G1 X79.752 Y146.48 E19.0139
G1 X79.012 Y146.361 E19.02736
G1 X78.29 Y146.163 E19.0408
G1 X77.592 Y145.89 E19.05426
G1 X76.928 Y145.543 E19.06772
G1 X76.304 Y145.128 E19.08118
G1 X75.729 Y144.649 E19.09462
G1 X75.207 Y144.111 E19.10808
G1 X74.746 Y143.521 E19.12153
G1 X74.35 Y142.885 E19.13499
G1 X74.024 Y142.21 E19.14845
G1 X73.772 Y141.505 E19.1619
G1 X73.597 Y140.776 E19.17536
G1 X73.5 Y140.034 E19.1888
G1 X73.48 Y139.5 E19.1984
G1 X73.48 Y80.5 E20.25807
G1 X73.52 Y79.752 E20.27152
G1 X73.639 Y79.012 E20.28498
G1 X73.837 Y78.29 E20.29843
G1 X74.11 Y77.592 E20.31189
G1 X74.457 Y76.928 E20.32535
G1 X74.872 Y76.304 E20.33881
G1 X75.351 Y75.729 E20.35225
G1 X75.889 Y75.207 E20.36571
M204 S500
M205 X8 Y8
G0 F6000 X76.241 Y75.38
M204 S150
M205 X1 Y1
G1 F480 X76.826 Y74.945 E20.37881
G1 X77.456 Y74.576 E20.39192
G1 X78.122 Y74.279 E20.40502
G1 X78.817 Y74.056 E20.41812
G1 X79.532 Y73.911 E20.43123
G1 X80.5 Y73.84 E20.44866
G1 X139.5 Y73.84 E21.50833
G1 X140.229 Y73.88 E21.52144
G1 X140.948 Y73.999 E21.53453
G1 X141.651 Y74.197 E21.54765
G1 X142.327 Y74.47 E21.56074
G1 X142.97 Y74.815 E21.57385
G1 X143.571 Y75.229 E21.58696
G1 X144.123 Y75.706 E21.60006
G1 X144.62 Y76.241 E21.61317
G1 X145.055 Y76.826 E21.62627
G1 X145.424 Y77.456 E21.63938
G1 X145.721 Y78.122 E21.65248
G1 X145.944 Y78.817 E21.66559
G1 X146.089 Y79.532 E21.67869
G1 X146.16 Y80.5 E21.69612
G1 X146.16 Y139.5 E22.75579
G1 X146.12 Y140.229 E22.7689
G1 X146.001 Y140.948 E22.78199
G1 X145.803 Y141.651 E22.79511
G1 X145.53 Y142.327 E22.8082
G1 X145.185 Y142.97 E22.82131
G1 X144.771 Y143.571 E22.83442
G1 X144.294 Y144.123 E22.84752
G1 X143.759 Y144.62 E22.86063
G1 X143.174 Y145.055 E22.87373
G1 X142.544 Y145.424 E22.88684
G1 X141.878 Y145.721 E22.89994
G1 X141.183 Y145.944 E22.91305
G1 X140.468 Y146.089 E22.92615
G1 X139.5 Y146.16 E22.94358
G1 X80.5 Y146.16 E24.00325
G1 X79.771 Y146.12 E24.01636
G1 X79.052 Y146.001 E24.02945
G1 X78.349 Y145.803 E24.04257
G1 X77.673 Y145.53 E24.05566
G1 X77.03 Y145.185 E24.06877
G1 X76.429 Y144.771 E24.08188
G1 X75.877 Y144.294 E24.09498
G1 X75.38 Y143.759 E24.1081
G1 X74.945 Y143.174 E24.12119
G1 X74.576 Y142.544 E24.1343
G1 X74.279 Y141.878 E24.1474
G1 X74.056 Y141.183 E24.16051
G1 X73.911 Y140.468 E24.17361
G1 X73.84 Y139.5 E24.19104
G1 X73.84 Y80.5 E25.25071
G1 X73.88 Y79.771 E25.26383
G1 X73.999 Y79.052 E25.27691
G1 X74.197 Y78.349 E25.29003
G1 X74.47 Y77.673 E25.30313
G1 X74.815 Y77.03 E25.31623
G1 X75.229 Y76.429 E25.32934
G1 X75.706 Y75.877 E25.34244
G1 X76.241 Y75.38 E25.35556
M204 S500
M205 X8 Y8
G0 F6000 X76.592 Y75.559
M204 S150
M205 X1 Y1
G1 F480 X77.172 Y75.151 E25.36829
G1 X77.795 Y74.81 E25.38105
G1 X78.452 Y74.542 E25.39379
G1 X79.135 Y74.35 E25.40654
G1 X79.836 Y74.235 E25.4193
G1 X80.5 Y74.2 E25.43124
G1 X139.5 Y74.2 E26.49091
G1 X140.209 Y74.24 E26.50366
G1 X140.908 Y74.359 E26.51639
G1 X141.59 Y74.557 E26.52915
G1 X142.245 Y74.829 E26.54189
G1 X142.865 Y75.174 E26.55463
G1 X143.443 Y75.586 E26.56738
G1 X143.97 Y76.061 E26.58012
G1 X144.441 Y76.592 E26.59287
G1 X144.849 Y77.172 E26.60561
G1 X145.19 Y77.795 E26.61836
G1 X145.458 Y78.452 E26.63111
G1 X145.65 Y79.135 E26.64385
G1 X145.765 Y79.836 E26.65661
G1 X145.8 Y80.5 E26.66855
G1 X145.8 Y139.5 E27.72822
G1 X145.76 Y140.209 E27.74097
G1 X145.641 Y140.908 E27.75371
G1 X145.443 Y141.59 E27.76646
G1 X145.171 Y142.245 E27.7792
G1 X144.826 Y142.865 E27.79194
G1 X144.414 Y143.443 E27.80469
G1 X143.939 Y143.97 E27.81743
G1 X143.408 Y144.441 E27.83018
G1 X142.828 Y144.849 E27.84292
G1 X142.205 Y145.19 E27.85567
G1 X141.548 Y145.458 E27.86842
G1 X140.865 Y145.65 E27.88116
G1 X140.164 Y145.765 E27.89392
G1 X139.5 Y145.8 E27.90586
G1 X80.5 Y145.8 E28.96553
G1 X79.791 Y145.76 E28.97828
G1 X79.092 Y145.641 E28.99102
G1 X78.41 Y145.443 E29.00377
G1 X77.755 Y145.171 E29.01651
G1 X77.135 Y144.826 E29.02926
G1 X76.557 Y144.414 E29.042
G1 X76.03 Y143.939 E29.05475
G1 X75.559 Y143.408 E29.06749
G1 X75.151 Y142.828 E29.08023
G1 X74.81 Y142.205 E29.09299
G1 X74.542 Y141.548 E29.10573
G1 X74.35 Y140.865 E29.11847
G1 X74.235 Y140.164 E29.13123
G1 X74.2 Y139.5 E29.14317
G1 X74.2 Y80.5 E30.20284
G1 X74.24 Y79.791 E30.2156
G1 X74.359 Y79.092 E30.22833
G1 X74.557 Y78.41 E30.24109
G1 X74.829 Y77.755 E30.25382
G1 X75.174 Y77.135 E30.26657
G1 X75.586 Y76.557 E30.27932
G1 X76.061 Y76.03 E30.29206
G1 X76.592 Y75.559 E30.30481
M204 S500
M205 X8 Y8
G0 F6000 X76.942 Y75.744
M204 S150
M205 X1 Y1
G1 F480 X77.517 Y75.364 E30.31719
G1 X78.132 Y75.053 E30.32956
G1 X78.778 Y74.815 E30.34193
G1 X79.448 Y74.654 E30.3543
G1 X80.132 Y74.571 E30.36668
G1 X80.5 Y74.56 E30.37329
G1 X139.5 Y74.56 E31.43296
G1 X140.188 Y74.6 E31.44534
G1 X140.867 Y74.719 E31.45772
G1 X141.527 Y74.916 E31.47009
G1 X142.16 Y75.189 E31.48247
G1 X142.757 Y75.533 E31.49484
G1 X143.31 Y75.943 E31.50721
G1 X143.812 Y76.415 E31.51958
G1 X144.256 Y76.942 E31.53196
G1 X144.636 Y77.517 E31.54434
G1 X144.947 Y78.132 E31.55672
G1 X145.185 Y78.778 E31.56908
G1 X145.346 Y79.448 E31.58146
G1 X145.429 Y80.132 E31.59383
G1 X145.44 Y80.5 E31.60045
G1 X145.44 Y139.5 E32.66011
G1 X145.4 Y140.188 E32.67249
G1 X145.281 Y140.867 E32.68487
G1 X145.084 Y141.527 E32.69724
G1 X144.811 Y142.16 E32.70962
G1 X144.467 Y142.757 E32.722
G1 X144.057 Y143.31 E32.73436
G1 X143.585 Y143.812 E32.74674
G1 X143.058 Y144.256 E32.75912
G1 X142.483 Y144.636 E32.7715
G1 X141.868 Y144.947 E32.78387
G1 X141.222 Y145.185 E32.79624
G1 X140.552 Y145.346 E32.80861
G1 X139.868 Y145.429 E32.82099
G1 X139.5 Y145.44 E32.8276
G1 X80.5 Y145.44 E33.88727
G1 X79.812 Y145.4 E33.89965
G1 X79.133 Y145.281 E33.91203
G1 X78.473 Y145.084 E33.9244
G1 X77.84 Y144.811 E33.93678
G1 X77.243 Y144.467 E33.94915
G1 X76.69 Y144.057 E33.96152
G1 X76.188 Y143.585 E33.97389
G1 X75.744 Y143.058 E33.98627
G1 X75.364 Y142.483 E33.99865
G1 X75.053 Y141.868 E34.01103
G1 X74.815 Y141.222 E34.02339
G1 X74.654 Y140.552 E34.03577
G1 X74.571 Y139.868 E34.04814
G1 X74.56 Y139.5 E34.05476
G1 X74.56 Y80.5 E35.11442
G1 X74.6 Y79.812 E35.1268
G1 X74.719 Y79.133 E35.13918
G1 X74.916 Y78.473 E35.15155
G1 X75.189 Y77.84 E35.16393
G1 X75.533 Y77.243 E35.17631
G1 X75.943 Y76.69 E35.18867
G1 X76.415 Y76.188 E35.20105
G1 X76.942 Y75.744 E35.21343
M204 S500
M205 X8 Y8
G0 F6000 X77.291 Y75.935
M204 S150
M205 X1 Y1
G1 F480 X77.859 Y75.584 E35.22542
G1 X78.465 Y75.304 E35.23741
G1 X79.101 Y75.098 E35.24942
G1 X79.756 Y74.97 E35.2614
G1 X80.5 Y74.92 E35.27479
G1 X139.5 Y74.92 E36.33446
G1 X140.167 Y74.96 E36.34646
G1 X140.824 Y75.079 E36.35846
G1 X141.462 Y75.276 E36.37045
G1 X142.072 Y75.548 E36.38244
G1 X142.645 Y75.891 E36.39444
G1 X143.173 Y76.3 E36.40643
G1 X143.649 Y76.768 E36.41842
G1 X144.065 Y77.291 E36.43043
G1 X144.416 Y77.859 E36.44242
G1 X144.696 Y78.465 E36.45441
G1 X144.902 Y79.101 E36.46641
G1 X145.03 Y79.756 E36.4784
G1 X145.08 Y80.5 E36.49179
G1 X145.08 Y139.5 E37.55146
G1 X145.04 Y140.167 E37.56346
G1 X144.921 Y140.824 E37.57545
G1 X144.724 Y141.462 E37.58745
G1 X144.452 Y142.072 E37.59944
G1 X144.109 Y142.645 E37.61144
G1 X143.7 Y143.173 E37.62343
G1 X143.232 Y143.649 E37.63542
G1 X142.709 Y144.065 E37.64742
G1 X142.141 Y144.416 E37.65942
G1 X141.535 Y144.696 E37.67141
G1 X140.899 Y144.902 E37.68341
G1 X140.244 Y145.03 E37.6954
G1 X139.5 Y145.08 E37.70879
G1 X80.5 Y145.08 E38.76846
G1 X79.833 Y145.04 E38.78046
G1 X79.176 Y144.921 E38.79245
G1 X78.538 Y144.724 E38.80445
G1 X77.928 Y144.452 E38.81644
G1 X77.355 Y144.109 E38.82844
G1 X76.827 Y143.7 E38.84043
