;FLAVOR:Marlin
;TIME:7853
;Filament used: 1.64051m
;Layer height: 0.08
;MINX:80.7
;MINY:80.7
;MINZ:0.12
;MAXX:139.3
;MAXY:139.3
;MAXZ:4.6
;Generated with Cura_SteamEngine 5.2.1
M82 ;absolute extrusion mode
; Ender 3 Custom Start G-code
G92 E0 ; Reset Extruder
G28 ; Home all axes
M104 S175 ; Start heating up the nozzle most of the way
M190 S60 ; Start heating the bed, wait until target temperature reached
M109 S215 ; Finish heating the nozzle
G1 Z2.0 F3000 ; Move Z Axis up little to prevent scratching of Heat Bed
G1 X0.1 Y20 Z0.3 F5000.0 ; Move to start position
G1 X0.1 Y200.0 Z0.3 F1500.0 E15 ; Draw the first line
G1 X0.4 Y200.0 Z0.3 F5000.0 ; Move to side a little
G1 X0.4 Y20 Z0.3 F1500.0 E30 ; Draw the second line
G92 E0 ; Reset Extruder
G1 Z2.0 F3000 ; Move Z Axis up little to prevent scratching of Heat Bed
G1 X5 Y20 Z0.3 F5000.0 ; Move over to prevent blob squish
G92 E0
G92 E0
G1 F2400 E-1.5
;LAYER_COUNT:57
;LAYER:0
M107
M204 S500
M205 X8 Y8
;MESH:Evolar_1mm.stl
G0 F6000 X106.285 Y108.854 Z0.12
M204 S150
M205 X1 Y1
;TYPE:WALL-INNER
G1 F2400 E0
G1 F480 X106 Y108.9 E0.00518
G1 X88.021 Y108.897 E0.3281
G1 X87.742 Y108.827 E0.33326
G1 X87.51 Y108.681 E0.33819
G1 X87.32 Y108.451 E0.34354
G1 X87.241 Y108.272 E0.34706
G1 X87.2 Y108 E0.352
G1 X87.2 Y106.9 E0.37176
G1 X84.358 Y106.9 E0.4228
G1 X84.076 Y106.795 E0.4282
G1 X83.848 Y106.621 E0.43335
G1 X83.669 Y106.347 E0.43923
G1 X83.6 Y106.112 E0.44363
G1 X83.6 Y88.1 E0.76714
G1 X83.662 Y87.769 E0.77318
G1 X83.826 Y87.502 E0.77881
G1 X84.04 Y87.325 E0.7838
G1 X84.258 Y87.232 E0.78806
G1 X84.453 Y87.201 E0.7916
G1 X87.2 Y87.2 E0.84094
G1 X87.201 Y84.453 E0.89028
G1 X87.233 Y84.257 E0.89384
G1 X87.325 Y84.04 E0.89808
G1 X87.502 Y83.826 E0.90307
G1 X87.77 Y83.662 E0.90871
G1 X87.99 Y83.6 E0.91281
G1 X106 Y83.6 E1.23628
G1 X106.347 Y83.669 E1.24264
G1 X106.621 Y83.848 E1.24851
G1 X106.795 Y84.076 E1.25367
G1 X106.9 Y84.359 E1.25909
G1 X106.9 Y87.2 E1.31011
G1 X108 Y87.2 E1.32987
G1 X108.272 Y87.241 E1.33481
G1 X108.55 Y87.386 E1.34044
G1 X108.681 Y87.51 E1.34368
G1 X108.827 Y87.742 E1.3486
G1 X108.9 Y88.1 E1.35517
G1 X108.897 Y106.079 E1.67808
G1 X108.855 Y106.285 E1.68185
G1 X108.75 Y106.5 E1.68615
G1 X108.541 Y106.721 E1.69161
G1 X108.355 Y106.828 E1.69547
G1 X108.122 Y106.9 E1.69985
G1 X107.037 Y106.9 E1.71934
G1 X106.953 Y106.93 E1.72094
G1 X106.901 Y107.007 E1.72261
G1 X106.9 Y108.127 E1.74272
G1 X106.806 Y108.403 E1.74796
G1 X106.637 Y108.637 E1.75314
G1 X106.285 Y108.854 E1.76057
M204 S500
M205 X8 Y8
G0 F6000 X106.433 Y108.325
M204 S150
M205 X1 Y1
G1 F480 X106.3 Y108.45 E1.76385
G1 X106 Y108.54 E1.76947
G1 X88.053 Y108.539 E2.09181
G1 X87.885 Y108.496 E2.09492
G1 X87.746 Y108.409 E2.09787
G1 X87.632 Y108.271 E2.10108
G1 X87.56 Y108 E2.10612
G1 X87.56 Y106.54 E2.13234
G1 X84.416 Y106.54 E2.18881
G1 X84.245 Y106.477 E2.19208
G1 X84.108 Y106.373 E2.19517
G1 X83.96 Y106.066 E2.20129
G1 X83.96 Y88.1 E2.52397
G1 X83.997 Y87.901 E2.52761
G1 X84.095 Y87.741 E2.53098
G1 X84.224 Y87.635 E2.53398
G1 X84.472 Y87.56 E2.53863
G1 X87.56 Y87.56 E2.59409
G1 X87.56 Y84.472 E2.64955
G1 X87.635 Y84.224 E2.65421
G1 X87.741 Y84.095 E2.65721
G1 X88.035 Y83.96 E2.66302
G1 X106 Y83.96 E2.98568
G1 X106.208 Y84.001 E2.98948
G1 X106.373 Y84.108 E2.99302
G1 X106.477 Y84.245 E2.9961
G1 X106.54 Y84.416 E2.99938
G1 X106.54 Y87.56 E3.05585
G1 X108 Y87.56 E3.08207
G1 X108.27 Y87.632 E3.08709
G1 X108.409 Y87.746 E3.09032
G1 X108.496 Y87.885 E3.09326
G1 X108.54 Y88.1 E3.0972
G1 X108.539 Y106.047 E3.41954
G1 X108.45 Y106.3 E3.42436
G1 X108.325 Y106.433 E3.42763
G1 X108.076 Y106.54 E3.4325
G1 X106.976 Y106.54 E3.45226
G1 X106.773 Y106.612 E3.45613
G1 X106.657 Y106.709 E3.45884
G1 X106.541 Y106.957 E3.46376
G1 X106.54 Y108.077 E3.48388
G1 X106.433 Y108.325 E3.48873
M204 S500
M205 X8 Y8
G0 F6000 X106.161 Y108.121
M204 S150
M205 X1 Y1
;TYPE:WALL-OUTER
G1 F480 X106.05 Y108.2 E3.49117
G1 X88.082 Y108.2 E3.81389
G1 X87.969 Y108.152 E3.81609
G1 X87.9 Y108 E3.81909
G1 X87.9 Y106.2 E3.85142
G1 X84.456 Y106.196 E3.91328
G1 X84.355 Y106.138 E3.91537
G1 X84.302 Y106.035 E3.91745
G1 X84.3 Y88.041 E4.24063
G1 X84.397 Y87.927 E4.24332
G1 X84.489 Y87.9 E4.24504
G1 X87.9 Y87.9 E4.3063
G1 X87.9 Y84.489 E4.36757
G1 X87.967 Y84.35 E4.37034
G1 X88.065 Y84.302 E4.3723
G1 X106 Y84.3 E4.69442
G1 X106.138 Y84.355 E4.69709
G1 X106.196 Y84.456 E4.69918
G1 X106.2 Y87.9 E4.76103
G1 X108.044 Y87.9 E4.79415
G1 X108.2 Y88.041 E4.79793
G1 X108.2 Y106.018 E5.1208
G1 X108.167 Y106.111 E5.12258
G1 X108.04 Y106.197 E5.12533
G1 X106.918 Y106.2 E5.14548
G1 X106.602 Y106.311 E5.1515
G1 X106.393 Y106.486 E5.15639
G1 X106.248 Y106.737 E5.1616
G1 X106.201 Y106.912 E5.16486
G1 X106.197 Y108.04 E5.18511
G1 X106.161 Y108.121 E5.18671
M204 S500
M205 X8 Y8
G1 F2400 E3.68671
G0 F6000 X106.88 Y108.121
G0 X112.948 Y107.052
G0 X113.715 Y108.88
G1 F2400 E5.18671
G0 F6000 X113.715 Y108.855
M204 S150
M205 X1 Y1
;TYPE:WALL-INNER
G1 F480 X113.5 Y108.75 E5.191
G1 X113.279 Y108.541 E5.19647
G1 X113.172 Y108.355 E5.20032
G1 X113.1 Y108.122 E5.2047
G1 X113.1 Y107.036 E5.22421
G1 X113.07 Y106.954 E5.22577
G1 X112.995 Y106.9 E5.22743
G1 X111.873 Y106.9 E5.24759
G1 X111.597 Y106.806 E5.25282
G1 X111.363 Y106.637 E5.25801
G1 X111.145 Y106.285 E5.26544
G1 X111.103 Y106.079 E5.26922
G1 X111.1 Y88.1 E5.59213
G1 X111.173 Y87.742 E5.59869
G1 X111.319 Y87.51 E5.60362
G1 X111.45 Y87.386 E5.60686
G1 X111.728 Y87.241 E5.61249
G1 X112 Y87.2 E5.61743
G1 X113.1 Y87.2 E5.63718
G1 X113.1 Y84.358 E5.68823
G1 X113.205 Y84.076 E5.69363
G1 X113.379 Y83.848 E5.69878
G1 X113.653 Y83.669 E5.70466
G1 X113.888 Y83.6 E5.70906
G1 X131.9 Y83.6 E6.03256
G1 X132.231 Y83.662 E6.03861
G1 X132.498 Y83.826 E6.04424
G1 X132.675 Y84.04 E6.04923
G1 X132.768 Y84.258 E6.05349
G1 X132.799 Y84.453 E6.05703
G1 X132.8 Y87.2 E6.10637
G1 X135.547 Y87.201 E6.15571
G1 X135.742 Y87.232 E6.15925
G1 X135.96 Y87.325 E6.16351
G1 X136.174 Y87.502 E6.1685
G1 X136.338 Y87.769 E6.17413
G1 X136.4 Y88.1 E6.18017
G1 X136.4 Y106.112 E6.50368
G1 X136.331 Y106.347 E6.50808
G1 X136.152 Y106.621 E6.51396
G1 X135.924 Y106.795 E6.51911
G1 X135.698 Y106.879 E6.52344
G1 X135.5 Y106.9 E6.52701
G1 X132.8 Y106.9 E6.57551
G1 X132.8 Y108 E6.59526
G1 X132.759 Y108.272 E6.6002
G1 X132.614 Y108.55 E6.60583
G1 X132.49 Y108.681 E6.60907
G1 X132.258 Y108.827 E6.614
G1 X131.9 Y108.9 E6.62056
G1 X113.921 Y108.897 E6.94347
G1 X113.715 Y108.855 E6.94725
M204 S500
M205 X8 Y8
G0 F6000 X113.567 Y108.325
M204 S150
M205 X1 Y1
G1 F480 X113.46 Y108.076 E6.95211
G1 X113.46 Y106.975 E6.97189
G1 X113.388 Y106.773 E6.97574
G1 X113.291 Y106.657 E6.97846
G1 X113.043 Y106.54 E6.98338
G1 X111.924 Y106.54 E7.00348
G1 X111.675 Y106.433 E7.00835
G1 X111.55 Y106.3 E7.01162
G1 X111.461 Y106.047 E7.01644
G1 X111.46 Y88.1 E7.33878
G1 X111.504 Y87.885 E7.34272
G1 X111.591 Y87.746 E7.34567
G1 X111.73 Y87.632 E7.34889
G1 X112 Y87.56 E7.35391
G1 X113.46 Y87.56 E7.38014
G1 X113.46 Y84.416 E7.4366
G1 X113.523 Y84.245 E7.43988
G1 X113.627 Y84.108 E7.44297
G1 X113.934 Y83.96 E7.44909
G1 X131.9 Y83.96 E7.77176
G1 X132.099 Y83.997 E7.7754
G1 X132.259 Y84.095 E7.77877
G1 X132.365 Y84.224 E7.78177
G1 X132.44 Y84.472 E7.78642
G1 X132.44 Y87.56 E7.84188
G1 X135.528 Y87.56 E7.89735
G1 X135.776 Y87.635 E7.902
G1 X135.905 Y87.741 E7.905
G1 X136.003 Y87.901 E7.90837
G1 X136.04 Y88.1 E7.912
G1 X136.04 Y106.066 E8.23468
G1 X135.892 Y106.373 E8.2408
G1 X135.619 Y106.527 E8.24643
G1 X135.5 Y106.54 E8.24858
G1 X132.44 Y106.54 E8.30354
G1 X132.44 Y108 E8.32976
G1 X132.368 Y108.27 E8.33478
G1 X132.254 Y108.409 E8.33801
G1 X132.115 Y108.496 E8.34096
G1 X131.9 Y108.54 E8.3449
G1 X113.953 Y108.539 E8.66723
G1 X113.7 Y108.45 E8.67205
G1 X113.567 Y108.325 E8.67533
M204 S500
M205 X8 Y8
G0 F6000 X113.889 Y108.167
M204 S150
M205 X1 Y1
;TYPE:WALL-OUTER
G1 F480 X113.803 Y108.04 E8.67808
G1 X113.8 Y106.917 E8.69825
G1 X113.689 Y106.602 E8.70425
G1 X113.513 Y106.393 E8.70916
G1 X113.265 Y106.248 E8.71432
G1 X113.088 Y106.2 E8.71761
G1 X111.96 Y106.197 E8.73787
G1 X111.833 Y106.111 E8.74063
G1 X111.8 Y106.018 E8.7424
G1 X111.8 Y88.041 E9.06527
G1 X111.956 Y87.9 E9.06905
G1 X113.8 Y87.9 E9.10217
G1 X113.804 Y84.456 E9.16403
G1 X113.862 Y84.355 E9.16612
G1 X113.965 Y84.302 E9.1682
G1 X131.959 Y84.3 E9.49138
G1 X132.073 Y84.397 E9.49407
G1 X132.1 Y84.489 E9.49579
G1 X132.1 Y87.9 E9.55705
G1 X135.511 Y87.9 E9.61832
G1 X135.603 Y87.927 E9.62004
G1 X135.7 Y88.041 E9.62273
G1 X135.698 Y106.035 E9.94591
G1 X135.645 Y106.138 E9.94799
G1 X135.544 Y106.196 E9.95008
G1 X132.1 Y106.2 E10.01194
G1 X132.1 Y108.044 E10.04505
G1 X131.959 Y108.2 E10.04883
G1 X113.982 Y108.2 E10.37171
G1 X113.889 Y108.167 E10.37348
M204 S500
M205 X8 Y8
G1 F2400 E8.87348
G0 F6000 X113.889 Y108.88
G0 X114 Y111.62
G0 X113.592 Y111.592
G0 X113.045 Y113.581
G0 X111.592 Y113.592
G0 X111.592 Y132.308
G0 X113.592 Y132.308
G0 X113.592 Y135.908
G0 X114 Y136.4
M204 S150
M205 X1 Y1
;TYPE:WALL-INNER
G1 F2400 E10.37348
G1 F480 X113.653 Y136.331 E10.37983
G1 X113.379 Y136.152 E10.38571
G1 X113.205 Y135.924 E10.39086
G1 X113.1 Y135.641 E10.39628
G1 X113.1 Y132.8 E10.44731
G1 X112 Y132.8 E10.46707
G1 X111.728 Y132.759 E10.47201
G1 X111.45 Y132.614 E10.47764
G1 X111.319 Y132.49 E10.48088
G1 X111.173 Y132.258 E10.4858
G1 X111.103 Y131.979 E10.49097
G1 X111.1 Y114 E10.81388
G1 X111.146 Y113.715 E10.81906
G1 X111.251 Y113.5 E10.82336
G1 X111.459 Y113.279 E10.82881
G1 X111.645 Y113.172 E10.83267
G1 X111.878 Y113.1 E10.83705
G1 X112.963 Y113.1 E10.85653
G1 X113.046 Y113.069 E10.85812
G1 X113.1 Y112.993 E10.8598
G1 X113.1 Y111.873 E10.87991
G1 X113.194 Y111.597 E10.88515
G1 X113.363 Y111.363 E10.89034
G1 X113.715 Y111.145 E10.89777
G1 X113.921 Y111.103 E10.90155
G1 X131.9 Y111.1 E11.22446
G1 X132.258 Y111.173 E11.23102
G1 X132.49 Y111.319 E11.23594
G1 X132.614 Y111.45 E11.23918
G1 X132.759 Y111.728 E11.24482
G1 X132.8 Y112 E11.24976
G1 X132.8 Y113.1 E11.26951
G1 X135.642 Y113.1 E11.32056
G1 X135.924 Y113.205 E11.32596
G1 X136.152 Y113.379 E11.33111
G1 X136.331 Y113.653 E11.33699
G1 X136.4 Y114 E11.34334
G1 X136.4 Y132.01 E11.66681
G1 X136.338 Y132.23 E11.67092
G1 X136.174 Y132.498 E11.67656
G1 X135.96 Y132.675 E11.68155
G1 X135.743 Y132.768 E11.68579
G1 X135.547 Y132.799 E11.68935
G1 X132.8 Y132.8 E11.73869
G1 X132.799 Y135.547 E11.78803
G1 X132.767 Y135.743 E11.7916
G1 X132.675 Y135.96 E11.79583
G1 X132.498 Y136.174 E11.80082
G1 X132.23 Y136.338 E11.80646
G1 X132.01 Y136.4 E11.81056
G1 X114 Y136.4 E12.13403
M204 S500
M205 X8 Y8
G0 F6000 X114 Y136.04
M204 S150
M205 X1 Y1
G1 F480 X113.792 Y135.999 E12.13784
G1 X113.627 Y135.892 E12.14137
G1 X113.523 Y135.755 E12.14446
G1 X113.46 Y135.584 E12.14773
G1 X113.46 Y132.44 E12.2042
G1 X112 Y132.44 E12.23042
G1 X111.73 Y132.368 E12.23544
G1 X111.591 Y132.254 E12.23867
G1 X111.504 Y132.115 E12.24162
G1 X111.461 Y131.947 E12.24473
G1 X111.46 Y114 E12.56707
G1 X111.55 Y113.7 E12.57269
G1 X111.675 Y113.567 E12.57597
G1 X111.924 Y113.46 E12.58084
G1 X113.024 Y113.46 E12.6006
G1 X113.227 Y113.387 E12.60447
G1 X113.342 Y113.291 E12.60716
G1 X113.46 Y113.043 E12.61209
G1 X113.46 Y111.924 E12.63219
G1 X113.567 Y111.675 E12.63706
G1 X113.7 Y111.55 E12.64034
G1 X113.953 Y111.461 E12.64515
G1 X131.9 Y111.46 E12.96749
G1 X132.115 Y111.504 E12.97143
G1 X132.254 Y111.591 E12.97438
G1 X132.368 Y111.73 E12.97761
G1 X132.44 Y112 E12.98263
G1 X132.44 Y113.46 E13.00885
G1 X135.584 Y113.46 E13.06532
G1 X135.755 Y113.523 E13.06859
G1 X135.892 Y113.627 E13.07168
G1 X135.999 Y113.792 E13.07521
G1 X136.04 Y114 E13.07902
G1 X136.04 Y131.965 E13.40168
G1 X135.905 Y132.259 E13.40749
G1 X135.776 Y132.365 E13.41049
G1 X135.528 Y132.44 E13.41514
G1 X132.44 Y132.44 E13.4706
G1 X132.44 Y135.528 E13.52606
G1 X132.365 Y135.776 E13.53072
G1 X132.259 Y135.905 E13.53372
G1 X131.965 Y136.04 E13.53953
G1 X114 Y136.04 E13.86219
M204 S500
M205 X8 Y8
G0 F6000 X113.862 Y135.645
M204 S150
M205 X1 Y1
;TYPE:WALL-OUTER
G1 F480 X113.804 Y135.544 E13.86428
G1 X113.8 Y132.1 E13.92613
G1 X111.956 Y132.1 E13.95925
G1 X111.877 Y132.059 E13.96085
G1 X111.8 Y131.918 E13.96374
G1 X111.8 Y113.95 E14.28645
G1 X111.879 Y113.839 E14.2889
G1 X111.96 Y113.803 E14.29049
G1 X113.082 Y113.8 E14.31064
G1 X113.398 Y113.688 E14.31666
G1 X113.607 Y113.514 E14.32155
G1 X113.752 Y113.263 E14.32675
G1 X113.8 Y113.088 E14.33001
G1 X113.803 Y111.96 E14.35027
G1 X113.889 Y111.833 E14.35303
G1 X113.982 Y111.8 E14.3548
G1 X131.959 Y111.8 E14.67768
G1 X132.1 Y111.956 E14.68145
G1 X132.1 Y113.8 E14.71457
G1 X135.544 Y113.804 E14.77643
G1 X135.645 Y113.862 E14.77852
G1 X135.7 Y114 E14.78119
G1 X135.698 Y131.935 E15.10331
G1 X135.65 Y132.033 E15.10527
G1 X135.511 Y132.1 E15.10804
G1 X132.1 Y132.1 E15.1693
G1 X132.1 Y135.511 E15.23057
G1 X132.033 Y135.65 E15.23334
G1 X131.935 Y135.698 E15.2353
G1 X114 Y135.7 E15.55742
G1 X113.862 Y135.645 E15.56009
M204 S500
M205 X8 Y8
G1 F2400 E14.06009
G0 F6000 X113.862 Y136.38
G0 X113.644 Y135.999
G0 X112.948 Y132.952
G0 X107.052 Y132.952
G0 X106.408 Y135.908
G0 X106.112 Y136.4
M204 S150
M205 X1 Y1
;TYPE:WALL-INNER
G1 F2400 E15.56009
G1 F480 X88.1 Y136.4 E15.88359
G1 X87.769 Y136.338 E15.88964
G1 X87.502 Y136.174 E15.89527
G1 X87.325 Y135.96 E15.90025
G1 X87.232 Y135.742 E15.90451
G1 X87.201 Y135.547 E15.90806
G1 X87.2 Y132.8 E15.95739
G1 X84.453 Y132.799 E16.00673
G1 X84.257 Y132.767 E16.0103
G1 X84.04 Y132.675 E16.01453
G1 X83.826 Y132.498 E16.01952
G1 X83.662 Y132.23 E16.02516
G1 X83.6 Y131.9 E16.03119
G1 X83.6 Y114 E16.35269
G1 X83.669 Y113.653 E16.35904
G1 X83.848 Y113.379 E16.36492
G1 X84.076 Y113.205 E16.37007
G1 X84.359 Y113.1 E16.37549
G1 X87.2 Y113.1 E16.42652
G1 X87.2 Y112 E16.44627
G1 X87.241 Y111.728 E16.45121
G1 X87.32 Y111.549 E16.45473
G1 X87.51 Y111.319 E16.46009
G1 X87.742 Y111.173 E16.46501
G1 X88.021 Y111.103 E16.47018
G1 X106 Y111.1 E16.79309
G1 X106.285 Y111.146 E16.79827
G1 X106.5 Y111.251 E16.80257
G1 X106.721 Y111.459 E16.80802
G1 X106.828 Y111.645 E16.81187
G1 X106.9 Y111.878 E16.81625
G1 X106.9 Y112.964 E16.83576
G1 X106.93 Y113.046 E16.83733
G1 X107.005 Y113.1 E16.83899
G1 X108.127 Y113.1 E16.85914
G1 X108.403 Y113.194 E16.86438
G1 X108.637 Y113.363 E16.86956
G1 X108.854 Y113.715 E16.87699
G1 X108.9 Y114 E16.88217
G1 X108.897 Y131.979 E17.20508
G1 X108.827 Y132.258 E17.21025
G1 X108.681 Y132.49 E17.21517
G1 X108.55 Y132.614 E17.21841
G1 X108.272 Y132.759 E17.22404
G1 X108 Y132.8 E17.22898
G1 X106.9 Y132.8 E17.24874
G1 X106.9 Y135.642 E17.29978
G1 X106.795 Y135.924 E17.30519
G1 X106.621 Y136.152 E17.31034
G1 X106.347 Y136.331 E17.31622
G1 X106.112 Y136.4 E17.32062
M204 S500
M205 X8 Y8
G0 F6000 X106.066 Y136.04
M204 S150
M205 X1 Y1
G1 F480 X88.1 Y136.04 E17.6433
G1 X87.901 Y136.003 E17.64693
G1 X87.741 Y135.905 E17.6503
G1 X87.635 Y135.776 E17.6533
G1 X87.56 Y135.528 E17.65795
G1 X87.56 Y132.44 E17.71341
G1 X84.472 Y132.44 E17.76888
G1 X84.224 Y132.365 E17.77353
G1 X84.095 Y132.259 E17.77653
G1 X83.997 Y132.098 E17.77991
G1 X83.96 Y131.9 E17.78353
G1 X83.96 Y114 E18.10502
G1 X84.001 Y113.792 E18.10883
G1 X84.108 Y113.627 E18.11236
G1 X84.245 Y113.523 E18.11545
G1 X84.416 Y113.46 E18.11873
G1 X87.56 Y113.46 E18.17519
G1 X87.56 Y112 E18.20142
G1 X87.632 Y111.729 E18.20645
G1 X87.746 Y111.591 E18.20967
G1 X87.885 Y111.504 E18.21261
G1 X88.053 Y111.461 E18.21573
G1 X106 Y111.46 E18.53806
G1 X106.3 Y111.55 E18.54369
G1 X106.433 Y111.675 E18.54697
G1 X106.54 Y111.924 E18.55183
G1 X106.54 Y113.025 E18.57161
G1 X106.612 Y113.227 E18.57546
G1 X106.709 Y113.343 E18.57818
G1 X106.957 Y113.46 E18.5831
G1 X108.076 Y113.46 E18.6032
G1 X108.325 Y113.567 E18.60807
