;FLAVOR:Marlin
;TIME:17743
;Filament used: 7.54665m
;Layer height: 0.16
;MINX:60.2
;MINY:62.16
;MINZ:0.2
;MAXX:159.8
;MAXY:109.108
;MAXZ:24.96
;Generated with Cura_SteamEngine 5.2.1
M82 ;absolute extrusion mode
; Ender 3 Custom Start G-code
G92 E0 ; Reset Extruder
G28 ; Home all axes
M104 S175 ; Start heating up the nozzle most of the way
M190 S60 ; Start heating the bed, wait until target temperature reached
M109 S215 ; Finish heating the nozzle
G1 Z2.0 F3000 ; Move Z Axis up little to prevent scratching of Heat Bed
G1 X0.1 Y20 Z0.3 F5000.0 ; Move to start position
G1 X0.1 Y200.0 Z0.3 F1500.0 E15 ; Draw the first line
G1 X0.4 Y200.0 Z0.3 F5000.0 ; Move to side a little
G1 X0.4 Y20 Z0.3 F1500.0 E30 ; Draw the second line
G92 E0 ; Reset Extruder
G1 Z2.0 F3000 ; Move Z Axis up little to prevent scratching of Heat Bed
G1 X5 Y20 Z0.3 F5000.0 ; Move over to prevent blob squish
G92 E0
G92 E0
G1 F2400 E-1.5
;LAYER_COUNT:172
;LAYER:0
M107
M204 S500
M205 X8 Y8
;MESH:leftbracket.stl
G0 F6000 X95.8 Y72.868 Z0.2
M204 S150
M205 X1 Y1
;TYPE:WALL-INNER
G1 F2400 E0
G1 F480 X159.082 Y72.867 E1.89429
G1 X159.088 Y64.867 E2.13376
G1 X159.1 Y64.666 E2.13979
G1 X159.1 Y62.868 E2.19361
G1 X68.985 Y62.868 E4.89113
G1 X68.985 Y72.868 E5.19047
G1 X79.2 Y72.868 E5.49624
G1 X79.1 Y72.568 E5.50571
G1 X79.1 Y64.968 E5.73321
G1 X79.135 Y64.715 E5.74086
G1 X79.28 Y64.428 E5.75048
G1 X79.576 Y64.173 E5.76218
G1 X79.882 Y64.068 E5.77186
G1 X95 Y64.068 E6.2244
G1 X95.424 Y64.173 E6.23748
G1 X95.72 Y64.428 E6.24917
G1 X95.865 Y64.715 E6.2588
G1 X95.9 Y64.968 E6.26645
G1 X95.9 Y72.568 E6.49394
G1 X95.8 Y72.868 E6.50341
M204 S500
M205 X8 Y8
G0 F6000 X95.104 Y73.164
M204 S150
M205 X1 Y1
G1 F406.6 X95.6 Y73.228 E6.52108
G1 F480 X159.442 Y73.227 E8.43214
G1 X159.446 Y64.907 E8.68119
G1 X159.46 Y64.666 E8.68842
G1 X159.46 Y62.508 E8.75301
G1 X68.625 Y62.508 E11.47208
G1 X68.625 Y73.228 E11.79297
G1 X79.4 Y73.228 E12.11551
G1 F411.4 X80 Y73.168 E12.13657
G1 X79.568 Y72.892 E12.15448
G1 F480 X79.46 Y72.568 E12.1647
G1 X79.46 Y64.858 E12.39549
G1 X79.568 Y64.644 E12.40267
G1 X79.745 Y64.491 E12.40967
G1 X79.926 Y64.428 E12.41541
G1 X95 Y64.428 E12.86663
G1 X95.255 Y64.491 E12.8745
G1 X95.432 Y64.644 E12.8815
G1 X95.54 Y64.858 E12.88868
G1 X95.54 Y72.568 E13.11947
G1 X95.432 Y72.892 E13.12969
G1 F406.6 X95.104 Y73.164 E13.14475
M204 S500
M205 X8 Y8
G0 F6000 X95.16 Y72.688
M204 S150
M205 X1 Y1
;TYPE:WALL-OUTER
G1 F480 X95.035 Y72.766 E13.14916
G1 X80 Y72.768 E13.59922
G1 X79.84 Y72.688 E13.60457
G1 X79.8 Y72.568 E13.60836
G1 X79.8 Y64.924 E13.83718
G1 X79.84 Y64.848 E13.83975
G1 X79.965 Y64.77 E13.84416
G1 X95.077 Y64.768 E14.29652
G1 X95.2 Y64.924 E14.30247
G1 X95.2 Y72.568 E14.53129
G1 X95.16 Y72.688 E14.53507
M204 S500
M205 X8 Y8
G0 F6000 X95.104 Y73.164
M204 S150
M205 X1 Y1
;TYPE:WALL-INNER
G1 F356.3 X80 Y73.168 E15.14418
M204 S500
M205 X8 Y8
G1 F2400 E13.64418
G0 F6000 X68.535 Y73.318
G1 F2400 E15.14418
G0 F6000 X68.285 Y73.568
M204 S150
M205 X1 Y1
;TYPE:WALL-OUTER
G1 F480 X159.782 Y73.567 E17.88307
G1 X159.784 Y64.945 E18.14116
G1 X159.8 Y64.931 E18.1418
G1 X159.8 Y64.666 E18.14973
G1 X159.8 Y62.168 E18.2245
G1 X68.285 Y62.168 E20.96392
G1 X68.285 Y73.568 E21.30517
M204 S500
M205 X8 Y8
G0 F6000 X68.535 Y73.318
G0 X95.408 Y72.976
G0 X95.98 Y72.544
G0 X96.224 Y72.544
M204 S150
M205 X1 Y1
;TYPE:SKIN
G1 F480 X158.757 Y72.543 E23.17704
G1 X158.765 Y64.843 E23.40754
G1 X158.776 Y64.666 E23.41285
G1 X158.776 Y63.192 E23.45697
G1 X95.617 Y63.193 E25.34758
G1 F420.4 X95.107 Y63.244 E25.36509
G1 F375.7 X79.786 Y63.241 E25.95111
G1 F422.5 X79.336 Y63.192 E25.9665
G1 F480 X69.309 Y63.192 E26.26665
G1 X69.309 Y72.544 E26.5466
G1 X78.776 Y72.544 E26.82998
G1 X78.777 Y64.95 E27.0573
G1 X78.821 Y64.621 E27.06724
G1 X79.019 Y64.228 E27.08041
G1 X79.39 Y63.909 E27.09506
G1 F422.5 X79.825 Y63.697 E27.11151
G1 F375.7 X95.052 Y63.699 E27.69393
G1 F396.3 X95.586 Y63.889 E27.71448
G1 F448.8 X95.981 Y64.228 E27.73115
G1 F480 X96.179 Y64.621 E27.74432
G1 X96.223 Y64.946 E27.75414
G1 X96.224 Y72.544 E27.98158
M204 S500
M205 X8 Y8
G1 F2400 E26.48158
G0 F6000 X95.98 Y72.544
G0 X95.808 Y72.96
G0 X159.174 Y72.96
G0 X159.192 Y62.776
G0 X68.893 Y62.776
G0 X68.893 Y72.96
G0 X69.817 Y72.788
G1 F2400 E27.98158
G0 F6000 X69.817 Y72.363
M204 S150
M205 X1 Y1
G1 F480 X69.488 Y72.034 E27.9955
M204 S500
M205 X8 Y8
G0 F6000 X69.488 Y71.525
M204 S150
M205 X1 Y1
G1 F480 X70.326 Y72.363 E28.03098
M204 S500
M205 X8 Y8
G0 F6000 X70.835 Y72.363
M204 S150
M205 X1 Y1
G1 F480 X69.488 Y71.016 E28.088
M204 S500
M205 X8 Y8
G0 F6000 X69.488 Y70.507
M204 S150
M205 X1 Y1
G1 F480 X71.344 Y72.363 E28.16657
M204 S500
M205 X8 Y8
G0 F6000 X71.854 Y72.363
M204 S150
M205 X1 Y1
G1 F480 X69.488 Y69.997 E28.26673
M204 S500
M205 X8 Y8
G0 F6000 X69.488 Y69.488
M204 S150
M205 X1 Y1
G1 F480 X72.363 Y72.363 E28.38844
M204 S500
M205 X8 Y8
G0 F6000 X72.872 Y72.363
M204 S150
M205 X1 Y1
G1 F480 X69.488 Y68.979 E28.5317
M204 S500
M205 X8 Y8
G0 F6000 X69.488 Y68.47
M204 S150
M205 X1 Y1
G1 F480 X73.381 Y72.363 E28.6965
M204 S500
M205 X8 Y8
G0 F6000 X73.89 Y72.363
M204 S150
M205 X1 Y1
G1 F480 X69.488 Y67.961 E28.88285
M204 S500
M205 X8 Y8
G0 F6000 X69.488 Y67.451
M204 S150
M205 X1 Y1
G1 F480 X74.399 Y72.363 E29.09077
M204 S500
M205 X8 Y8
G0 F6000 X74.908 Y72.363
M204 S150
M205 X1 Y1
G1 F480 X69.488 Y66.942 E29.32024
M204 S500
M205 X8 Y8
G0 F6000 X69.488 Y66.433
M204 S150
M205 X1 Y1
G1 F480 X75.417 Y72.363 E29.57125
M204 S500
M205 X8 Y8
G0 F6000 X75.927 Y72.363
M204 S150
M205 X1 Y1
G1 F480 X69.488 Y65.924 E29.84384
M204 S500
M205 X8 Y8
G0 F6000 X69.488 Y65.415
M204 S150
M205 X1 Y1
G1 F480 X76.436 Y72.363 E30.13797
M204 S500
M205 X8 Y8
G0 F6000 X76.945 Y72.363
M204 S150
M205 X1 Y1
G1 F480 X69.488 Y64.906 E30.45365
M204 S500
M205 X8 Y8
G0 F6000 X69.488 Y64.396
M204 S150
M205 X1 Y1
G1 F480 X77.454 Y72.363 E30.79089
M204 S500
M205 X8 Y8
G0 F6000 X77.963 Y72.363
M204 S150
M205 X1 Y1
G1 F480 X69.488 Y63.887 E31.14969
M204 S500
M205 X8 Y8
G0 F6000 X69.488 Y63.378
M204 S150
M205 X1 Y1
G1 F480 X78.472 Y72.363 E31.53003
M204 S500
M205 X8 Y8
G0 F6000 X78.595 Y71.977
M204 S150
M205 X1 Y1
G1 F480 X69.99 Y63.371 E31.89433
M204 S500
M205 X8 Y8
G0 F6000 X70.499 Y63.371
M204 S150
M205 X1 Y1
G1 F480 X78.595 Y71.467 E32.23706
M204 S500
M205 X8 Y8
G0 F6000 X78.595 Y70.958
M204 S150
M205 X1 Y1
G1 F480 X71.008 Y63.371 E32.55824
M204 S500
M205 X8 Y8
G0 F6000 X71.517 Y63.371
M204 S150
M205 X1 Y1
G1 F480 X78.595 Y70.449 E32.85788
M204 S500
M205 X8 Y8
G0 F6000 X78.595 Y69.94
M204 S150
M205 X1 Y1
G1 F480 X72.026 Y63.371 E33.13597
M204 S500
M205 X8 Y8
G0 F6000 X72.535 Y63.371
M204 S150
M205 X1 Y1
G1 F480 X78.595 Y69.431 E33.3925
M204 S500
M205 X8 Y8
G0 F6000 X78.595 Y68.922
M204 S150
M205 X1 Y1
G1 F480 X73.044 Y63.371 E33.6275
M204 S500
M205 X8 Y8
G0 F6000 X73.553 Y63.371
M204 S150
M205 X1 Y1
G1 F480 X78.595 Y68.413 E33.84094
M204 S500
M205 X8 Y8
G0 F6000 X78.595 Y67.904
M204 S150
M205 X1 Y1
G1 F480 X74.063 Y63.371 E34.03282
M204 S500
M205 X8 Y8
G0 F6000 X74.572 Y63.371
M204 S150
M205 X1 Y1
G1 F480 X78.595 Y67.395 E34.20314
M204 S500
M205 X8 Y8
G0 F6000 X78.595 Y66.885
M204 S150
M205 X1 Y1
G1 F480 X75.081 Y63.371 E34.3519
M204 S500
M205 X8 Y8
G0 F6000 X75.59 Y63.371
M204 S150
M205 X1 Y1
G1 F480 X78.595 Y66.376 E34.47911
M204 S500
M205 X8 Y8
G0 F6000 X78.595 Y65.867
M204 S150
M205 X1 Y1
G1 F480 X76.099 Y63.371 E34.58478
M204 S500
M205 X8 Y8
G0 F6000 X76.608 Y63.371
M204 S150
M205 X1 Y1
G1 F480 X78.595 Y65.358 E34.66889
M204 S500
M205 X8 Y8
G0 F6000 X78.609 Y64.863
M204 S150
M205 X1 Y1
G1 F480 X77.117 Y63.371 E34.73206
M204 S500
M205 X8 Y8
G0 F6000 X77.626 Y63.371
M204 S150
M205 X1 Y1
G1 F480 X78.705 Y64.449 E34.77771
M204 S500
M205 X8 Y8
G0 F6000 X78.876 Y64.111
M204 S150
M205 X1 Y1
G1 F480 X78.136 Y63.371 E34.80904
M204 S500
M205 X8 Y8
G0 F6000 X78.645 Y63.371
M204 S150
M205 X1 Y1
G1 F480 X79.149 Y63.876 E34.8304
M204 S500
M205 X8 Y8
G0 F6000 X79.449 Y63.667
M204 S150
M205 X1 Y1
G1 F480 X79.154 Y63.371 E34.84291
M204 S500
M205 X8 Y8
G0 F6000 X79.154 Y62.948
G0 X95.475 Y62.948
G0 X95.475 Y63.401
M204 S150
M205 X1 Y1
G1 F480 X104.437 Y72.363 E35.2223
M204 S500
M205 X8 Y8
G0 F6000 X103.928 Y72.363
M204 S150
M205 X1 Y1
G1 F480 X96.386 Y64.821 E35.54157
M204 S500
M205 X8 Y8
G0 F6000 X96.4 Y65.344
M204 S150
M205 X1 Y1
G1 F480 X103.419 Y72.363 E35.83871
M204 S500
M205 X8 Y8
G0 F6000 X102.91 Y72.363
M204 S150
M205 X1 Y1
G1 F480 X96.4 Y65.853 E36.1143
M204 S500
M205 X8 Y8
G0 F6000 X96.4 Y66.362
M204 S150
M205 X1 Y1
G1 F480 X102.401 Y72.363 E36.36834
M204 S500
M205 X8 Y8
G0 F6000 X101.891 Y72.363
M204 S150
M205 X1 Y1
G1 F480 X96.4 Y66.871 E36.60081
M204 S500
M205 X8 Y8
G0 F6000 X96.4 Y67.38
M204 S150
M205 X1 Y1
G1 F480 X101.382 Y72.363 E36.81174
M204 S500
M205 X8 Y8
G0 F6000 X100.873 Y72.363
M204 S150
M205 X1 Y1
G1 F480 X96.401 Y67.89 E37.00107
M204 S500
M205 X8 Y8
G0 F6000 X96.401 Y68.399
M204 S150
M205 X1 Y1
G1 F480 X100.364 Y72.363 E37.16886
M204 S500
M205 X8 Y8
G0 F6000 X99.855 Y72.363
M204 S150
M205 X1 Y1
G1 F480 X96.401 Y68.908 E37.3151
M204 S500
M205 X8 Y8
G0 F6000 X96.401 Y69.418
M204 S150
M205 X1 Y1
G1 F480 X99.346 Y72.363 E37.43977
M204 S500
M205 X8 Y8
G0 F6000 X98.837 Y72.363
M204 S150
M205 X1 Y1
G1 F480 X96.401 Y69.927 E37.5429
M204 S500
M205 X8 Y8
G0 F6000 X96.401 Y70.437
M204 S150
M205 X1 Y1
G1 F480 X98.328 Y72.363 E37.62445
M204 S500
M205 X8 Y8
G0 F6000 X97.819 Y72.363
M204 S150
M205 X1 Y1
G1 F480 X96.401 Y70.946 E37.68446
M204 S500
M205 X8 Y8
G0 F6000 X96.401 Y71.455
M204 S150
M205 X1 Y1
G1 F480 X97.309 Y72.363 E37.7229
M204 S500
M205 X8 Y8
G0 F6000 X96.8 Y72.363
M204 S150
M205 X1 Y1
G1 F480 X96.401 Y71.964 E37.73979
M204 S500
M205 X8 Y8
G0 F6000 X95.98 Y71.964
G0 X96.008 Y72.711
G0 X104.946 Y72.788
G0 X104.946 Y72.363
M204 S150
M205 X1 Y1
G1 F480 X95.956 Y63.373 E38.12037
M204 S500
M205 X8 Y8
G0 F6000 X96.465 Y63.373
M204 S150
M205 X1 Y1
G1 F480 X105.455 Y72.363 E38.50094
M204 S500
M205 X8 Y8
G0 F6000 X105.964 Y72.363
M204 S150
M205 X1 Y1
G1 F480 X96.974 Y63.373 E38.88152
M204 S500
M205 X8 Y8
G0 F6000 X97.483 Y63.373
M204 S150
M205 X1 Y1
G1 F480 X106.474 Y72.363 E39.26211
M204 S500
M205 X8 Y8
G0 F6000 X106.983 Y72.363
M204 S150
M205 X1 Y1
G1 F480 X97.992 Y63.373 E39.64271
M204 S500
M205 X8 Y8
G0 F6000 X98.502 Y63.373
M204 S150
M205 X1 Y1
G1 F480 X107.492 Y72.363 E40.02329
M204 S500
M205 X8 Y8
G0 F6000 X108.001 Y72.363
M204 S150
M205 X1 Y1
G1 F480 X99.011 Y63.373 E40.40386
M204 S500
M205 X8 Y8
G0 F6000 X99.52 Y63.373
M204 S150
M205 X1 Y1
G1 F480 X108.51 Y72.363 E40.78444
M204 S500
M205 X8 Y8
G0 F6000 X109.019 Y72.363
M204 S150
M205 X1 Y1
G1 F480 X100.029 Y63.373 E41.16501
M204 S500
M205 X8 Y8
G0 F6000 X100.538 Y63.373
M204 S150
M205 X1 Y1
G1 F480 X109.528 Y72.363 E41.54559
M204 S500
M205 X8 Y8
G0 F6000 X110.037 Y72.363
M204 S150
M205 X1 Y1
G1 F480 X101.047 Y63.373 E41.92617
M204 S500
M205 X8 Y8
G0 F6000 X101.556 Y63.373
M204 S150
M205 X1 Y1
G1 F480 X110.546 Y72.363 E42.30674
M204 S500
M205 X8 Y8
G0 F6000 X111.056 Y72.363
M204 S150
M205 X1 Y1
G1 F480 X102.065 Y63.373 E42.68734
M204 S500
M205 X8 Y8
G0 F6000 X102.575 Y63.373
M204 S150
M205 X1 Y1
G1 F480 X111.565 Y72.363 E43.06792
M204 S500
M205 X8 Y8
G0 F6000 X112.074 Y72.363
M204 S150
M205 X1 Y1
G1 F480 X103.084 Y63.373 E43.44849
M204 S500
M205 X8 Y8
G0 F6000 X103.593 Y63.373
M204 S150
M205 X1 Y1
G1 F480 X112.583 Y72.363 E43.82907
M204 S500
M205 X8 Y8
G0 F6000 X113.092 Y72.363
M204 S150
M205 X1 Y1
G1 F480 X104.102 Y63.373 E44.20964
M204 S500
M205 X8 Y8
G0 F6000 X104.611 Y63.373
M204 S150
M205 X1 Y1
G1 F480 X113.601 Y72.363 E44.59022
M204 S500
M205 X8 Y8
G0 F6000 X114.11 Y72.363
M204 S150
M205 X1 Y1
G1 F480 X105.12 Y63.373 E44.97079
M204 S500
M205 X8 Y8
G0 F6000 X105.629 Y63.373
M204 S150
M205 X1 Y1
G1 F480 X114.619 Y72.363 E45.35137
M204 S500
M205 X8 Y8
G0 F6000 X115.129 Y72.363
M204 S150
M205 X1 Y1
G1 F480 X106.138 Y63.373 E45.73197
M204 S500
M205 X8 Y8
G0 F6000 X106.647 Y63.373
M204 S150
M205 X1 Y1
G1 F480 X115.638 Y72.363 E46.11256
M204 S500
M205 X8 Y8
G0 F6000 X116.147 Y72.363
M204 S150
M205 X1 Y1
G1 F480 X107.157 Y63.373 E46.49314
M204 S500
M205 X8 Y8
G0 F6000 X107.666 Y63.373
M204 S150
M205 X1 Y1
G1 F480 X116.656 Y72.363 E46.87372
M204 S500
M205 X8 Y8
G0 F6000 X117.165 Y72.363
M204 S150
M205 X1 Y1
G1 F480 X108.175 Y63.373 E47.25429
M204 S500
M205 X8 Y8
G0 F6000 X108.684 Y63.373
M204 S150
M205 X1 Y1
G1 F480 X117.674 Y72.363 E47.63487
M204 S500
M205 X8 Y8
G0 F6000 X118.183 Y72.363
M204 S150
M205 X1 Y1
G1 F480 X109.193 Y63.373 E48.01544
M204 S500
M205 X8 Y8
G0 F6000 X109.702 Y63.373
M204 S150
M205 X1 Y1
G1 F480 X118.692 Y72.363 E48.39602
M204 S500
M205 X8 Y8
G0 F6000 X119.201 Y72.363
M204 S150
M205 X1 Y1
G1 F480 X110.211 Y63.373 E48.7766
M204 S500
M205 X8 Y8
G0 F6000 X110.72 Y63.373
M204 S150
M205 X1 Y1
G1 F480 X119.711 Y72.363 E49.15719
M204 S500
M205 X8 Y8
G0 F6000 X120.22 Y72.363
M204 S150
M205 X1 Y1
G1 F480 X111.23 Y63.373 E49.53777
M204 S500
M205 X8 Y8
G0 F6000 X111.739 Y63.373
M204 S150
M205 X1 Y1
G1 F480 X120.729 Y72.363 E49.91834
M204 S500
M205 X8 Y8
G0 F6000 X121.238 Y72.363
M204 S150
M205 X1 Y1
G1 F480 X112.248 Y63.373 E50.29892
M204 S500
M205 X8 Y8
G0 F6000 X112.757 Y63.373
M204 S150
M205 X1 Y1
G1 F480 X121.747 Y72.363 E50.6795
M204 S500
M205 X8 Y8
G0 F6000 X122.256 Y72.363
M204 S150
M205 X1 Y1
G1 F480 X113.266 Y63.373 E51.06007
M204 S500
M205 X8 Y8
G0 F6000 X113.775 Y63.373
M204 S150
M205 X1 Y1
G1 F480 X122.765 Y72.363 E51.44065
M204 S500
M205 X8 Y8
G0 F6000 X123.274 Y72.363
M204 S150
M205 X1 Y1
G1 F480 X114.284 Y63.373 E51.82122
M204 S500
M205 X8 Y8
G0 F6000 X114.793 Y63.373
M204 S150
M205 X1 Y1
G1 F480 X123.783 Y72.363 E52.2018
M204 S500
M205 X8 Y8
G0 F6000 X124.293 Y72.363
M204 S150
M205 X1 Y1
G1 F480 X115.302 Y63.373 E52.5824
M204 S500
M205 X8 Y8
G0 F6000 X115.812 Y63.373
M204 S150
M205 X1 Y1
G1 F480 X124.802 Y72.363 E52.96297
M204 S500
M205 X8 Y8
G0 F6000 X125.311 Y72.363
M204 S150
M205 X1 Y1
G1 F480 X116.321 Y63.373 E53.34355
M204 S500
M205 X8 Y8
G0 F6000 X116.83 Y63.373
M204 S150
M205 X1 Y1
G1 F480 X125.82 Y72.363 E53.72412
M204 S500
M205 X8 Y8
G0 F6000 X126.329 Y72.363
M204 S150
M205 X1 Y1
G1 F480 X117.339 Y63.373 E54.1047
M204 S500
M205 X8 Y8
G0 F6000 X117.848 Y63.373
M204 S150
M205 X1 Y1
G1 F480 X126.838 Y72.363 E54.48527
M204 S500
M205 X8 Y8
G0 F6000 X127.347 Y72.363
M204 S150
M205 X1 Y1
G1 F480 X118.357 Y63.373 E54.86585
M204 S500
M205 X8 Y8
G0 F6000 X118.866 Y63.373
M204 S150
M205 X1 Y1
G1 F480 X127.856 Y72.363 E55.24643
M204 S500
M205 X8 Y8
G0 F6000 X128.366 Y72.363
M204 S150
M205 X1 Y1
G1 F480 X119.375 Y63.373 E55.62702
M204 S500
M205 X8 Y8
G0 F6000 X119.885 Y63.373
M204 S150
M205 X1 Y1
G1 F480 X128.875 Y72.363 E56.0076
M204 S500
M205 X8 Y8
G0 F6000 X129.384 Y72.363
M204 S150
M205 X1 Y1
G1 F480 X120.394 Y63.373 E56.38818
M204 S500
M205 X8 Y8
G0 F6000 X120.903 Y63.373
M204 S150
M205 X1 Y1
G1 F480 X129.893 Y72.363 E56.76875
M204 S500
M205 X8 Y8
G0 F6000 X130.402 Y72.363
M204 S150
M205 X1 Y1
G1 F480 X121.412 Y63.373 E57.14933
M204 S500
M205 X8 Y8
G0 F6000 X121.921 Y63.373
M204 S150
M205 X1 Y1
G1 F480 X130.911 Y72.363 E57.5299
M204 S500
M205 X8 Y8
G0 F6000 X131.42 Y72.363
M204 S150
M205 X1 Y1
G1 F480 X122.43 Y63.373 E57.91048
M204 S500
M205 X8 Y8
G0 F6000 X122.939 Y63.373
M204 S150
M205 X1 Y1
G1 F480 X131.929 Y72.363 E58.29105
M204 S500
M205 X8 Y8
