;FLAVOR:Marlin
;TIME:14866
;Filament used: 8.89483m
;Layer height: 0.2
;MINX:17.272
;MINY:16.031
;MINZ:0.2
;MAXX:204.514
;MAXY:203.282
;MAXZ:40
;Generated with Cura_SteamEngine 5.2.1
M82 ;absolute extrusion mode
; Ender 3 Custom Start G-code
G92 E0 ; Reset Extruder
G28 ; Home all axes
M104 S175 ; Start heating up the nozzle most of the way
M190 S65 ; Start heating the bed, wait until target temperature reached
M109 S215 ; Finish heating the nozzle
G1 Z2.0 F3000 ; Move Z Axis up little to prevent scratching of Heat Bed
G1 X0.1 Y20 Z0.3 F5000.0 ; Move to start position
G1 X0.1 Y200.0 Z0.3 F1500.0 E15 ; Draw the first line
G1 X0.4 Y200.0 Z0.3 F5000.0 ; Move to side a little
G1 X0.4 Y20 Z0.3 F1500.0 E30 ; Draw the second line
G92 E0 ; Reset Extruder
G1 Z2.0 F3000 ; Move Z Axis up little to prevent scratching of Heat Bed
G1 X5 Y20 Z0.3 F5000.0 ; Move over to prevent blob squish
G92 E0
G92 E0
G1 F2400 E-1.5
;LAYER_COUNT:200
;LAYER:0
M107
M204 S500
M205 X8 Y8
G0 F6000 X109.909 Y111.884 Z0.2
M204 S150
M205 X1 Y1
;TYPE:SKIRT
G1 F2400 E0
G1 F480 X110.066 Y111.806 E0.00525
G1 X110.347 Y111.711 E0.01413
G1 X110.635 Y111.654 E0.02292
G1 X110.939 Y111.634 E0.03203
G1 X111.243 Y111.654 E0.04115
G1 X111.531 Y111.711 E0.04994
G1 X111.812 Y111.806 E0.05882
G1 X112.055 Y111.926 E0.06693
G1 X111.735 Y111.879 E0.07662
G1 X110.987 Y111.829 E0.09906
G1 X110.723 Y111.829 E0.10696
G1 X109.909 Y111.884 E0.13138
M204 S500
M205 X8 Y8
G0 F6000 X109.892 Y112.246
M204 S150
M205 X1 Y1
G1 F480 X108.957 Y112.432 E0.15992
G1 X108.527 Y112.578 E0.17351
G1 X109.01 Y112.095 E0.19396
G1 X109.323 Y111.821 E0.20641
G1 X109.61 Y111.629 E0.21675
G1 X109.926 Y111.473 E0.2273
G1 X110.252 Y111.363 E0.2376
G1 X110.595 Y111.295 E0.24806
G1 X110.939 Y111.272 E0.25838
G1 X111.283 Y111.295 E0.2687
G1 X111.626 Y111.363 E0.27917
G1 X111.952 Y111.473 E0.28947
G1 X112.268 Y111.629 E0.30002
G1 X112.555 Y111.821 E0.31035
G1 X112.865 Y112.093 E0.3227
G1 X113.436 Y112.664 E0.34687
G1 X112.751 Y112.432 E0.36852
G1 X111.82 Y112.246 E0.39694
G1 X110.855 Y112.182 E0.42589
G1 X109.892 Y112.246 E0.45478
M204 S500
M205 X8 Y8
G0 F6000 X109.942 Y112.604
M204 S150
M205 X1 Y1
G1 F480 X109.049 Y112.781 E0.48203
G1 X108.183 Y113.074 E0.5094
G1 X107.361 Y113.48 E0.53684
G1 X106.601 Y113.994 E0.56431
G1 X108.757 Y111.838 E0.65558
G1 X109.101 Y111.536 E0.66928
G1 X109.431 Y111.316 E0.68115
G1 X109.789 Y111.14 E0.69309
G1 X110.156 Y111.015 E0.7047
G1 X110.547 Y110.938 E0.71663
G1 X110.939 Y110.912 E0.72839
G1 X111.331 Y110.938 E0.74015
G1 X111.722 Y111.015 E0.75208
G1 X112.089 Y111.14 E0.76368
G1 X112.447 Y111.316 E0.77562
G1 X112.772 Y111.533 E0.78732
G1 X113.126 Y111.844 E0.80143
G1 X120.28 Y118.998 E1.10428
G1 X120.238 Y119.039 E1.10604
G1 X115.775 Y114.575 E1.29499
G1 X115.111 Y113.99 E1.32148
G1 X114.345 Y113.478 E1.34906
G1 X113.53 Y113.075 E1.37628
G1 X112.657 Y112.78 E1.40386
G1 X111.772 Y112.604 E1.43087
G1 X110.855 Y112.542 E1.45838
G1 X109.942 Y112.604 E1.48578
M204 S500
M205 X8 Y8
G0 F6000 X109.989 Y112.961
M204 S150
M205 X1 Y1
G1 F480 X109.144 Y113.129 E1.51156
G1 X108.32 Y113.408 E1.53761
G1 X107.543 Y113.792 E1.56355
G1 X106.823 Y114.272 E1.58945
G1 X106.232 Y114.792 E1.61302
G1 X28.561 Y192.46 E4.90102
G1 X28.093 Y191.993 E4.92081
G1 X108.502 Y111.583 E8.3248
G1 X108.878 Y111.254 E8.33976
G1 X109.257 Y111.001 E8.3534
G1 X109.652 Y110.806 E8.36659
G1 X110.061 Y110.667 E8.37952
G1 X110.499 Y110.58 E8.39289
G1 X110.939 Y110.551 E8.40608
G1 X111.379 Y110.58 E8.41928
G1 X111.817 Y110.667 E8.43265
G1 X112.226 Y110.806 E8.44558
G1 X112.621 Y111.001 E8.45877
G1 X113.001 Y111.254 E8.47243
G1 X113.373 Y111.581 E8.48726
G1 X120.789 Y118.997 E8.8012
G1 X120.238 Y119.549 E8.82455
G1 X115.477 Y114.789 E9.02608
G1 X114.888 Y114.274 E9.0495
G1 X114.167 Y113.791 E9.07548
G1 X113.391 Y113.408 E9.10138
G1 X112.564 Y113.128 E9.12752
G1 X111.724 Y112.961 E9.15315
G1 X110.855 Y112.903 E9.17922
G1 X109.989 Y112.961 E9.2052
M204 S500
M205 X8 Y8
G0 F6000 X110.004 Y113.325
M204 S150
M205 X1 Y1
G1 F480 X109.269 Y113.471 E9.22764
G1 X108.427 Y113.757 E9.25425
G1 X107.695 Y114.123 E9.27875
G1 X107.071 Y114.539 E9.3012
G1 X106.445 Y115.085 E9.32607
G1 X28.56 Y192.969 E12.62317
G1 X27.585 Y191.993 E12.66447
G1 X108.265 Y111.312 E16.07993
G1 X108.661 Y110.965 E16.09569
G1 X109.073 Y110.69 E16.11052
G1 X109.513 Y110.473 E16.12521
G1 X109.966 Y110.319 E16.13953
G1 X110.453 Y110.223 E16.15439
G1 X110.939 Y110.19 E16.16897
G1 X111.425 Y110.223 E16.18355
G1 X111.912 Y110.319 E16.19841
G1 X112.365 Y110.473 E16.21273
G1 X112.805 Y110.69 E16.22742
G1 X113.217 Y110.964 E16.24223
G1 X113.611 Y111.311 E16.25795
G1 X121.298 Y118.998 E16.58336
G1 X120.238 Y120.057 E16.62821
G1 X115.266 Y115.084 E16.83871
G1 X114.638 Y114.539 E16.86361
G1 X114.016 Y114.123 E16.886
G1 X113.284 Y113.757 E16.9105
G1 X112.441 Y113.471 E16.93715
G1 X111.708 Y113.325 E16.95952
G1 X110.819 Y113.266 E16.98619
G1 X110.004 Y113.325 E17.01065
M204 S500
M205 X8 Y8
G0 F6000 X110.074 Y113.678
M204 S150
M205 X1 Y1
G1 F480 X109.339 Y113.824 E17.03308
G1 X108.586 Y114.08 E17.05689
G1 X107.895 Y114.422 E17.07997
G1 X107.271 Y114.838 E17.10242
G1 X106.7 Y115.34 E17.12518
G1 X28.56 Y193.479 E20.43308
G1 X27.075 Y191.993 E20.49596
G1 X108.012 Y111.055 E23.92231
G1 X108.44 Y110.68 E23.93934
G1 X108.894 Y110.376 E23.9557
G1 X109.376 Y110.139 E23.97178
G1 X109.871 Y109.971 E23.98742
G1 X110.406 Y109.865 E24.00375
G1 X110.939 Y109.83 E24.01974
G1 X111.472 Y109.865 E24.03573
G1 X112.007 Y109.971 E24.05206
G1 X112.502 Y110.139 E24.0677
G1 X112.984 Y110.376 E24.08378
G1 X113.438 Y110.68 E24.10014
G1 X113.864 Y111.054 E24.11711
G1 X121.808 Y118.998 E24.4534
G1 X120.238 Y120.567 E24.51984
G1 X115.003 Y115.331 E24.74148
G1 X114.438 Y114.838 E24.76392
G1 X113.816 Y114.422 E24.78632
G1 X113.103 Y114.071 E24.81011
G1 X112.371 Y113.824 E24.83324
G1 X111.615 Y113.675 E24.8563
G1 X110.843 Y113.625 E24.87946
G1 X110.074 Y113.678 E24.90254
M204 S500
M205 X8 Y8
G1 F2400 E23.40254
;MESH:top.stl
G0 F6000 X107.567 Y111.168
G0 X22.121 Y194.912
M204 S150
M205 X1 Y1
;TYPE:WALL-INNER
G1 F2400 E24.90254
G1 F480 X107.047 Y109.987 E28.49771
G1 X107.53 Y109.563 E28.51695
G1 X108.136 Y109.149 E28.53892
G1 X108.79 Y108.823 E28.56079
G1 X109.467 Y108.587 E28.58225
G1 X110.252 Y108.432 E28.6062
G1 X110.975 Y108.389 E28.62788
G1 X111.695 Y108.441 E28.64949
G1 X112.411 Y108.587 E28.67137
G1 X113.088 Y108.823 E28.69283
G1 X113.74 Y109.148 E28.71463
G1 X114.352 Y109.561 E28.73674
G1 X114.833 Y109.987 E28.75597
G1 X117.431 Y112.587 E28.86599
G1 F435.3 X118.023 Y113.121 E28.89231
G1 F394.5 X121.522 Y116.621 E29.07255
G1 F430.9 X122.144 Y117.296 E29.10316
G1 F480 X122.571 Y117.723 E29.12124
G1 X124.344 Y115.95 E29.19629
G1 X123.554 Y115.16 E29.22974
G1 X122.469 Y116.243 E29.27563
G1 X122.344 Y116.309 E29.27986
G1 F430.9 X121.805 Y116.285 E29.29785
G1 F394.5 X118.329 Y112.815 E29.47672
G1 F435.3 X118.202 Y112.33 E29.49327
G1 F480 X118.355 Y112.023 E29.50354
G1 X202.825 Y27.553 E33.07943
G1 X198.111 Y22.839 E33.27899
G1 X193.397 Y18.125 E33.47855
G1 X19.366 Y192.157 E40.84587
G1 X22.121 Y194.912 E40.96249
M204 S500
M205 X8 Y8
G0 F6000 X22.121 Y195.393
M204 S150
M205 X1 Y1
;TYPE:WALL-OUTER
G1 F480 X107.272 Y110.242 E44.56721
G1 X107.755 Y109.818 E44.58645
G1 X108.35 Y109.418 E44.60791
G1 X108.963 Y109.119 E44.62833
G1 X109.604 Y108.901 E44.6486
G1 X110.249 Y108.774 E44.66827
G1 X110.953 Y108.728 E44.68939
G1 X111.629 Y108.774 E44.70967
G1 X112.3 Y108.908 E44.73016
G1 X112.915 Y109.119 E44.74962
G1 X113.551 Y109.431 E44.77083
G1 X114.126 Y109.816 E44.79154
G1 X114.616 Y110.25 E44.81113
G1 X122.571 Y118.204 E45.14787
G1 X124.826 Y115.95 E45.24331
G1 X123.554 Y114.678 E45.29716
G1 X122.233 Y115.996 E45.35302
G1 X122.024 Y115.972 E45.35932
G1 X118.596 Y112.548 E45.50435
G1 X118.539 Y112.378 E45.50972
G1 X118.596 Y112.264 E45.51353
G1 X203.306 Y27.553 E49.0996
G1 X198.351 Y22.599 E49.30934
G1 X193.397 Y17.644 E49.51908
G1 X18.885 Y192.157 E56.90676
G1 X22.121 Y195.393 E57.04375
M204 S500
M205 X8 Y8
G0 F6000 X22.121 Y194.452
M204 S150
M205 X1 Y1
;TYPE:SKIN
G1 F480 X106.803 Y109.769 E60.62864
G1 X107.403 Y109.251 E60.65237
G1 X107.953 Y108.879 E60.67224
G1 X108.746 Y108.491 E60.69867
G1 X109.382 Y108.273 E60.71879
G1 X110.119 Y108.122 E60.74131
G1 X110.924 Y108.062 E60.76548
G1 X111.726 Y108.115 E60.78954
G1 X112.447 Y108.258 E60.81154
G1 X113.217 Y108.526 E60.83595
G1 X113.914 Y108.874 E60.85927
G1 X114.472 Y109.244 E60.87931
G1 X115.086 Y109.779 E60.90369
G1 X117.662 Y112.357 E61.01278
G1 X117.939 Y112.587 E61.02356
G1 X117.883 Y112.263 E61.0334
G1 X118.109 Y111.809 E61.04858
G1 X202.365 Y27.553 E64.61541
G1 X197.881 Y23.07 E64.80521
G1 X193.397 Y18.585 E64.99505
G1 X19.826 Y192.157 E72.3429
G1 X22.121 Y194.452 E72.44005
M204 S500
M205 X8 Y8
G0 F6000 X22.372 Y193.944
M204 S150
M205 X1 Y1
G1 F480 X20.332 Y191.904 E72.52641
M204 S500
M205 X8 Y8
G0 F6000 X20.586 Y191.649
M204 S150
M205 X1 Y1
G1 F480 X22.626 Y193.689 E72.61277
M204 S500
M205 X8 Y8
G0 F6000 X22.881 Y193.435
M204 S150
M205 X1 Y1
G1 F480 X20.841 Y191.395 E72.69913
M204 S500
M205 X8 Y8
G0 F6000 X21.095 Y191.14
M204 S150
M205 X1 Y1
G1 F480 X23.135 Y193.18 E72.78549
M204 S500
M205 X8 Y8
G0 F6000 X23.39 Y192.926
M204 S150
M205 X1 Y1
G1 F480 X21.35 Y190.886 E72.87185
M204 S500
M205 X8 Y8
G0 F6000 X21.604 Y190.631
M204 S150
M205 X1 Y1
G1 F480 X23.644 Y192.671 E72.95821
M204 S500
M205 X8 Y8
G0 F6000 X23.899 Y192.417
M204 S150
M205 X1 Y1
G1 F480 X21.859 Y190.377 E73.04457
M204 S500
M205 X8 Y8
G0 F6000 X22.114 Y190.122
M204 S150
M205 X1 Y1
G1 F480 X24.154 Y192.162 E73.13093
M204 S500
M205 X8 Y8
G0 F6000 X24.408 Y191.908
M204 S150
M205 X1 Y1
G1 F480 X22.368 Y189.868 E73.21729
M204 S500
M205 X8 Y8
G0 F6000 X22.623 Y189.613
M204 S150
M205 X1 Y1
G1 F480 X24.663 Y191.653 E73.30365
M204 S500
M205 X8 Y8
G0 F6000 X24.917 Y191.398
M204 S150
M205 X1 Y1
G1 F480 X22.877 Y189.358 E73.39001
M204 S500
M205 X8 Y8
G0 F6000 X23.132 Y189.104
M204 S150
M205 X1 Y1
G1 F480 X25.172 Y191.144 E73.47637
M204 S500
M205 X8 Y8
G0 F6000 X25.426 Y190.889
M204 S150
M205 X1 Y1
G1 F480 X23.386 Y188.849 E73.56273
M204 S500
M205 X8 Y8
G0 F6000 X23.641 Y188.595
M204 S150
M205 X1 Y1
G1 F480 X25.681 Y190.635 E73.64909
M204 S500
M205 X8 Y8
G0 F6000 X25.935 Y190.38
M204 S150
M205 X1 Y1
G1 F480 X23.895 Y188.34 E73.73545
M204 S500
M205 X8 Y8
G0 F6000 X24.15 Y188.086
M204 S150
M205 X1 Y1
G1 F480 X26.19 Y190.126 E73.82181
M204 S500
M205 X8 Y8
G0 F6000 X26.445 Y189.871
M204 S150
M205 X1 Y1
G1 F480 X24.405 Y187.831 E73.90817
M204 S500
M205 X8 Y8
G0 F6000 X24.659 Y187.577
M204 S150
M205 X1 Y1
G1 F480 X26.699 Y189.617 E73.99453
M204 S500
M205 X8 Y8
G0 F6000 X26.954 Y189.362
M204 S150
M205 X1 Y1
G1 F480 X24.914 Y187.322 E74.08089
M204 S500
M205 X8 Y8
G0 F6000 X25.168 Y187.067
M204 S150
M205 X1 Y1
G1 F480 X27.208 Y189.107 E74.16725
M204 S500
M205 X8 Y8
G0 F6000 X27.463 Y188.853
M204 S150
M205 X1 Y1
G1 F480 X25.423 Y186.813 E74.25361
M204 S500
M205 X8 Y8
G0 F6000 X25.677 Y186.558
M204 S150
M205 X1 Y1
G1 F480 X27.717 Y188.598 E74.33997
M204 S500
M205 X8 Y8
G0 F6000 X27.972 Y188.344
M204 S150
M205 X1 Y1
G1 F480 X25.932 Y186.304 E74.42633
M204 S500
M205 X8 Y8
G0 F6000 X26.186 Y186.049
M204 S150
M205 X1 Y1
G1 F480 X28.226 Y188.089 E74.51269
M204 S500
M205 X8 Y8
G0 F6000 X28.481 Y187.835
M204 S150
M205 X1 Y1
G1 F480 X26.441 Y185.795 E74.59905
M204 S500
M205 X8 Y8
G0 F6000 X26.696 Y185.54
M204 S150
M205 X1 Y1
G1 F480 X28.736 Y187.58 E74.68541
M204 S500
M205 X8 Y8
G0 F6000 X28.99 Y187.326
M204 S150
M205 X1 Y1
G1 F480 X26.95 Y185.286 E74.77177
M204 S500
M205 X8 Y8
G0 F6000 X27.205 Y185.031
M204 S150
M205 X1 Y1
G1 F480 X29.245 Y187.071 E74.85813
M204 S500
M205 X8 Y8
G0 F6000 X29.499 Y186.816
M204 S150
M205 X1 Y1
G1 F480 X27.459 Y184.776 E74.94449
M204 S500
M205 X8 Y8
G0 F6000 X27.714 Y184.522
M204 S150
M205 X1 Y1
G1 F480 X29.754 Y186.562 E75.03085
M204 S500
M205 X8 Y8
G0 F6000 X30.008 Y186.307
M204 S150
M205 X1 Y1
G1 F480 X27.968 Y184.267 E75.11721
M204 S500
M205 X8 Y8
G0 F6000 X28.223 Y184.013
M204 S150
M205 X1 Y1
G1 F480 X30.263 Y186.053 E75.20357
M204 S500
M205 X8 Y8
G0 F6000 X30.518 Y185.798
M204 S150
M205 X1 Y1
G1 F480 X28.478 Y183.758 E75.28993
M204 S500
M205 X8 Y8
G0 F6000 X28.732 Y183.504
M204 S150
M205 X1 Y1
G1 F480 X30.772 Y185.544 E75.37629
M204 S500
M205 X8 Y8
G0 F6000 X31.027 Y185.289
M204 S150
M205 X1 Y1
G1 F480 X28.987 Y183.249 E75.46265
M204 S500
M205 X8 Y8
G0 F6000 X29.241 Y182.994
M204 S150
M205 X1 Y1
G1 F480 X31.281 Y185.034 E75.54901
M204 S500
M205 X8 Y8
G0 F6000 X31.536 Y184.78
M204 S150
M205 X1 Y1
G1 F480 X29.496 Y182.74 E75.63537
M204 S500
M205 X8 Y8
G0 F6000 X29.75 Y182.485
M204 S150
M205 X1 Y1
G1 F480 X31.79 Y184.525 E75.72172
M204 S500
M205 X8 Y8
G0 F6000 X32.045 Y184.271
M204 S150
M205 X1 Y1
G1 F480 X30.005 Y182.231 E75.80808
M204 S500
M205 X8 Y8
G0 F6000 X30.259 Y181.976
M204 S150
M205 X1 Y1
G1 F480 X32.299 Y184.016 E75.89444
M204 S500
M205 X8 Y8
G0 F6000 X32.554 Y183.762
M204 S150
M205 X1 Y1
G1 F480 X30.514 Y181.722 E75.9808
M204 S500
M205 X8 Y8
G0 F6000 X30.769 Y181.467
M204 S150
M205 X1 Y1
G1 F480 X32.809 Y183.507 E76.06716
M204 S500
M205 X8 Y8
G0 F6000 X33.063 Y183.253
M204 S150
M205 X1 Y1
G1 F480 X31.023 Y181.213 E76.15352
M204 S500
M205 X8 Y8
G0 F6000 X31.278 Y180.958
M204 S150
M205 X1 Y1
G1 F480 X33.318 Y182.998 E76.23988
M204 S500
M205 X8 Y8
G0 F6000 X33.572 Y182.743
M204 S150
M205 X1 Y1
G1 F480 X31.532 Y180.703 E76.32624
M204 S500
M205 X8 Y8
G0 F6000 X31.787 Y180.449
M204 S150
M205 X1 Y1
G1 F480 X33.827 Y182.489 E76.4126
M204 S500
M205 X8 Y8
G0 F6000 X34.081 Y182.234
M204 S150
M205 X1 Y1
G1 F480 X32.041 Y180.194 E76.49896
M204 S500
M205 X8 Y8
G0 F6000 X32.296 Y179.94
M204 S150
M205 X1 Y1
G1 F480 X34.336 Y181.98 E76.58532
M204 S500
M205 X8 Y8
G0 F6000 X34.59 Y181.725
M204 S150
M205 X1 Y1
G1 F480 X32.55 Y179.685 E76.67168
M204 S500
M205 X8 Y8
G0 F6000 X32.805 Y179.431
M204 S150
M205 X1 Y1
G1 F480 X34.845 Y181.471 E76.75804
M204 S500
M205 X8 Y8
G0 F6000 X35.1 Y181.216
M204 S150
M205 X1 Y1
G1 F480 X33.06 Y179.176 E76.8444
M204 S500
M205 X8 Y8
G0 F6000 X33.314 Y178.922
M204 S150
M205 X1 Y1
G1 F480 X35.354 Y180.962 E76.93076
M204 S500
M205 X8 Y8
G0 F6000 X35.609 Y180.707
M204 S150
M205 X1 Y1
G1 F480 X33.569 Y178.667 E77.01712
M204 S500
M205 X8 Y8
G0 F6000 X33.823 Y178.412
M204 S150
M205 X1 Y1
G1 F480 X35.863 Y180.452 E77.10348
M204 S500
M205 X8 Y8
G0 F6000 X36.118 Y180.198
M204 S150
M205 X1 Y1
G1 F480 X34.078 Y178.158 E77.18984
M204 S500
M205 X8 Y8
G0 F6000 X34.332 Y177.903
M204 S150
M205 X1 Y1
G1 F480 X36.372 Y179.943 E77.2762
M204 S500
M205 X8 Y8
G0 F6000 X36.627 Y179.689
M204 S150
M205 X1 Y1
G1 F480 X34.587 Y177.649 E77.36256
M204 S500
M205 X8 Y8
G0 F6000 X34.841 Y177.394
M204 S150
M205 X1 Y1
G1 F480 X36.881 Y179.434 E77.44892
M204 S500
M205 X8 Y8
G0 F6000 X37.136 Y179.18
M204 S150
M205 X1 Y1
G1 F480 X35.096 Y177.14 E77.53528
M204 S500
M205 X8 Y8
G0 F6000 X35.351 Y176.885
M204 S150
M205 X1 Y1
G1 F480 X37.391 Y178.925 E77.62164
M204 S500
M205 X8 Y8
G0 F6000 X37.645 Y178.671
M204 S150
M205 X1 Y1
G1 F480 X35.605 Y176.631 E77.708
M204 S500
M205 X8 Y8
G0 F6000 X35.86 Y176.376
M204 S150
M205 X1 Y1
G1 F480 X37.9 Y178.416 E77.79436
M204 S500
M205 X8 Y8
G0 F6000 X38.154 Y178.161
M204 S150
M205 X1 Y1
G1 F480 X36.114 Y176.121 E77.88072
M204 S500
M205 X8 Y8
G0 F6000 X36.369 Y175.867
M204 S150
M205 X1 Y1
G1 F480 X38.409 Y177.907 E77.96708
M204 S500
M205 X8 Y8
